RealBloom/ocio/LUTs/moment_spherical_compression.cube
TITLE "Moment Compression v1m= 0.97 sim=0.94 ITU-R BT.2020 I-ESpherical Chroma Compression v1s=0.9 sis=0.85"
# Compress chroma in two ways. In the moment plane and spherically. Resolution 33
# Reduces the purity in the moment plane relative to the color space ITU-R BT.2020 and illuminant E
# At a purity of 1.0, the compression is 3.0%.
# Very high purities are compressed by 6.0%.
# At a radius of 1.0, the compression is 10.0%.
# Very high radii are compressed by 15.0%.
LUT_3D_SIZE 9
0.0000000 0.0000000 0.0000000
0.1250000 0.0000000 0.0000000
0.2499989 0.0000183 0.0000183
0.3748285 0.0140408 0.0140408
0.4982567 0.1862612 0.1862612
0.6203091 0.3759246 0.3759246
0.7433292 0.5250016 0.5250016
0.8676232 0.6568697 0.6568697
0.9924459 0.7834896 0.7834896
0.0000000 0.1250000 0.0000000
0.1250000 0.1250000 0.0000000
0.2499992 0.1250017 0.0000160
0.3748348 0.1274921 0.0140552
0.4982641 0.2074762 0.1864343
0.6203116 0.3776120 0.3759728
0.7433298 0.5252122 0.5250113
0.8676233 0.6569034 0.6568715
0.9924459 0.7834954 0.7834899
0.0000183 0.2499989 0.0000183
0.1250017 0.2499992 0.0000160
0.2499994 0.2499994 0.0000366
0.3748650 0.2502730 0.0141656
0.4983056 0.2718780 0.1873974
0.6203262 0.3864794 0.3762450
0.7433329 0.5263924 0.5250663
0.8676239 0.6570933 0.6568817
0.9924460 0.7835282 0.7834917
0.0140408 0.3748285 0.0140408
0.1274921 0.3748348 0.0140552
0.2502730 0.3748650 0.0141656
0.3749143 0.3749143 0.0257889
0.4985179 0.3778896 0.1925277
0.6204082 0.4228038 0.3777608
0.7433504 0.5327277 0.5253766
0.8676271 0.6581584 0.6569389
0.9924465 0.7837135 0.7835019
0.1862612 0.4982567 0.1862612
0.2074762 0.4982641 0.1864343
0.2718780 0.4983056 0.1873974
0.3778896 0.4985179 0.1925277
0.4991336 0.4991336 0.2334812
0.6208497 0.5076697 0.3857115
0.7434489 0.5607984 0.5271058
0.8676452 0.6639040 0.6572617
0.9924498 0.7847531 0.7835597
0.3759246 0.6203091 0.3759246
0.3776120 0.6203116 0.3759728
0.3864794 0.6203262 0.3762450
0.4228038 0.6204082 0.3777608
0.5076697 0.6208497 0.3857115
0.6226927 0.6226927 0.4257276
0.7439954 0.6357191 0.5361480
0.8677474 0.6898620 0.6590607
0.9924680 0.7903674 0.7838858
0.5250016 0.7433292 0.5250016
0.5252122 0.7433298 0.5250113
0.5263924 0.7433329 0.5250663
0.5327277 0.7433504 0.5253766
0.5607984 0.7434489 0.5271058
0.6357191 0.7439954 0.5361480
0.7467417 0.7467417 0.5749766
0.8683208 0.7617789 0.6684624
0.9925708 0.8158439 0.7857031
0.6568697 0.8676232 0.6568697
0.6569034 0.8676233 0.6568715
0.6570933 0.8676239 0.6568817
0.6581584 0.8676271 0.6569389
0.6639040 0.8676452 0.6572617
0.6898620 0.8677474 0.6590607
0.7617789 0.8683208 0.6684624
0.8714059 0.8714059 0.7068657
0.9931495 0.8870440 0.7951994
0.7834896 0.9924459 0.7834896
0.7834954 0.9924459 0.7834899
0.7835282 0.9924460 0.7834917
0.7837135 0.9924465 0.7835019
0.7847531 0.9924498 0.7835597
0.7903674 0.9924680 0.7838858
0.8158439 0.9925708 0.7857031
0.8870440 0.9931495 0.7951994
0.9963218 0.9963218 0.8334889
0.0000000 0.0000000 0.1250000
0.1250000 0.0000000 0.1250000
0.2499992 0.0000160 0.1250017
0.3748348 0.0140552 0.1274921
0.4982641 0.1864343 0.2074762
0.6203116 0.3759728 0.3776120
0.7433298 0.5250113 0.5252122
0.8676233 0.6568715 0.6569034
0.9924459 0.7834899 0.7834954
0.0000000 0.1250000 0.1250000
0.1250000 0.1250000 0.1250000
0.2499995 0.1250014 0.1250014
0.3748412 0.1274947 0.1274947
0.4982716 0.2076048 0.2076048
0.6203142 0.3776591 0.3776591
0.7433303 0.5252219 0.5252219
0.8676234 0.6569052 0.6569052
0.9924459 0.7834957 0.7834957
0.0000160 0.2499992 0.1250017
0.1250014 0.2499995 0.1250014
0.2499998 0.2499998 0.1250028
0.3748715 0.2502741 0.1275101
0.4983131 0.2719300 0.2083219
0.6203288 0.3865210 0.3779250
0.7433334 0.5264019 0.5252768
0.8676240 0.6570951 0.6569153
0.9924460 0.7835285 0.7834975
0.0140552 0.3748348 0.1274921
0.1274947 0.3748412 0.1274947
0.2502741 0.3748715 0.1275101
0.3749206 0.3749206 0.1299060
0.4985258 0.3779016 0.2121734
0.6204108 0.4228288 0.3794060
0.7433509 0.5327365 0.5255862
0.8676272 0.6581601 0.6569725
0.9924466 0.7837138 0.7835077
0.1864343 0.4982641 0.2074762
0.2076048 0.4982716 0.2076048
0.2719300 0.4983131 0.2083219
0.3779016 0.4985258 0.2121734
0.4991410 0.4991410 0.2451061
0.6208524 0.5076773 0.3871843
0.7434495 0.5608043 0.5273104
0.8676453 0.6639056 0.6572951
0.9924498 0.7847534 0.7835655
0.3759728 0.6203116 0.3776120
0.3776591 0.6203142 0.3776591
0.3865210 0.6203288 0.3779250
0.4228288 0.6204108 0.3794060
0.5076773 0.6208524 0.3871843
0.6226952 0.6226952 0.4265646
0.7439960 0.6357212 0.5363284
0.8677475 0.6898632 0.6590933
0.9924680 0.7903677 0.7838916
0.5250113 0.7433298 0.5252122
0.5252219 0.7433303 0.5252219
0.5264019 0.7433334 0.5252768
0.5327365 0.7433509 0.5255862
0.5608043 0.7434495 0.5273104
0.6357212 0.7439960 0.5363284
0.7467422 0.7467422 0.5750813
0.8683209 0.7617793 0.6684911
0.9925709 0.8158441 0.7857087
0.6568715 0.8676233 0.6569034
0.6569052 0.8676234 0.6569052
0.6570951 0.8676240 0.6569153
0.6581601 0.8676272 0.6569725
0.6639056 0.8676453 0.6572951
0.6898632 0.8677475 0.6590933
0.7617793 0.8683209 0.6684911
0.8714059 0.8714059 0.7068825
0.9931496 0.8870440 0.7952044
0.7834899 0.9924459 0.7834954
0.7834957 0.9924459 0.7834957
0.7835285 0.9924460 0.7834975
0.7837138 0.9924466 0.7835077
0.7847534 0.9924498 0.7835655
0.7903677 0.9924680 0.7838916
0.8158441 0.9925709 0.7857087
0.8870440 0.9931496 0.7952044
0.9963218 0.9963218 0.8334918
0.0000183 0.0000183 0.2499989
0.1250017 0.0000160 0.2499992
0.2499994 0.0000366 0.2499994
0.3748650 0.0141656 0.2502730
0.4983056 0.1873974 0.2718780
0.6203262 0.3762450 0.3864794
0.7433329 0.5250663 0.5263924
0.8676239 0.6568817 0.6570933
0.9924460 0.7834917 0.7835282
0.0000160 0.1250017 0.2499992
0.1250014 0.1250014 0.2499995
0.2499998 0.1250028 0.2499998
0.3748715 0.1275101 0.2502741
0.4983131 0.2083219 0.2719300
0.6203288 0.3779250 0.3865210
0.7433334 0.5252768 0.5264019
0.8676240 0.6569153 0.6570951
0.9924460 0.7834975 0.7835285
0.0000366 0.2499994 0.2499994
0.1250028 0.2499998 0.2499998
0.2500000 0.2500000 0.2500000
0.3749026 0.2502749 0.2502749
0.4983550 0.2722201 0.2722201
0.6203434 0.3867559 0.3867559
0.7433365 0.5264559 0.5264559
0.8676245 0.6571052 0.6571052
0.9924461 0.7835303 0.7835303
0.0141656 0.3748650 0.2502730
0.1275101 0.3748715 0.2502741
0.2502749 0.3749026 0.2502749
0.3749513 0.3749513 0.2505488
0.4985699 0.3779675 0.2737858
0.6204255 0.4229701 0.3880663
0.7433540 0.5327859 0.5267603
0.8676277 0.6581701 0.6571622
0.9924467 0.7837156 0.7835405
0.1873974 0.4983056 0.2718780
0.2083219 0.4983131 0.2719300
0.2722201 0.4983550 0.2722201
0.3779675 0.4985699 0.2737858
0.4991822 0.4991822 0.2891833
0.6208676 0.5077206 0.3949935
0.7434526 0.5608378 0.5284569
0.8676458 0.6639148 0.6574840
0.9924499 0.7847552 0.7835983
0.3762450 0.6203262 0.3864794
0.3779250 0.6203288 0.3865210
0.3867559 0.6203434 0.3867559
0.4229701 0.6204255 0.3880663
0.5077206 0.6208676 0.3949935
0.6227093 0.6227093 0.4311247
0.7439991 0.6357330 0.5373402
0.8677481 0.6898696 0.6592776
0.9924681 0.7903694 0.7839242
0.5250663 0.7433329 0.5263924
0.5252768 0.7433334 0.5264019
0.5264559 0.7433365 0.5264559
0.5327859 0.7433540 0.5267603
0.5608378 0.7434526 0.5284569
0.6357330 0.7439991 0.5373402
0.7467452 0.7467452 0.5756705
0.8683215 0.7617817 0.6686528
0.9925710 0.8158453 0.7857406
0.6568817 0.8676239 0.6570933
0.6569153 0.8676240 0.6570951
0.6571052 0.8676245 0.6571052
0.6581701 0.8676277 0.6571622
0.6639148 0.8676458 0.6574840
0.6898696 0.8677481 0.6592776
0.7617817 0.8683215 0.6686528
0.8714065 0.8714065 0.7069774
0.9931497 0.8870445 0.7952323
0.7834917 0.9924460 0.7835282
0.7834975 0.9924460 0.7835285
0.7835303 0.9924461 0.7835303
0.7837156 0.9924467 0.7835405
0.7847552 0.9924499 0.7835983
0.7903694 0.9924681 0.7839242
0.8158453 0.9925710 0.7857406
0.8870445 0.9931497 0.7952323
0.9963219 0.9963219 0.8335082
0.0140408 0.0140408 0.3748285
0.1274921 0.0140552 0.3748348
0.2502730 0.0141656 0.3748650
0.3749143 0.0257889 0.3749143
0.4985179 0.1925277 0.3778896
0.6204082 0.3777608 0.4228038
0.7433504 0.5253766 0.5327277
0.8676271 0.6569389 0.6581584
0.9924465 0.7835019 0.7837135
0.0140552 0.1274921 0.3748348
0.1274947 0.1274947 0.3748412
0.2502741 0.1275101 0.3748715
0.3749206 0.1299060 0.3749206
0.4985258 0.2121734 0.3779016
0.6204108 0.3794060 0.4228288
0.7433509 0.5255862 0.5327365
0.8676272 0.6569725 0.6581601
0.9924466 0.7835077 0.7837138
0.0141656 0.2502730 0.3748650
0.1275101 0.2502741 0.3748715
0.2502749 0.2502749 0.3749026
0.3749513 0.2505488 0.3749513
0.4985699 0.2737858 0.3779675
0.6204255 0.3880663 0.4229701
0.7433540 0.5267603 0.5327859
0.8676277 0.6571622 0.6581701
0.9924467 0.7835405 0.7837156
0.0257889 0.3749143 0.3749143
0.1299060 0.3749206 0.3749206
0.2505488 0.3749513 0.3749513
0.3750000 0.3750000 0.3750000
0.4987975 0.3782966 0.3782966
0.6205081 0.4237615 0.4237615
0.7433715 0.5330647 0.5330647
0.8676309 0.6582263 0.6582263
0.9924472 0.7837258 0.7837258
0.1925277 0.4985179 0.3778896
0.2121734 0.4985258 0.3779016
0.2737858 0.4985699 0.3779675
0.3782966 0.4987975 0.3782966
0.4994012 0.4994012 0.3814490
0.6209532 0.5079630 0.4280219
0.7434701 0.5610265 0.5346203
0.8676490 0.6639667 0.6585434
0.9924504 0.7847652 0.7837835
0.3777608 0.6204082 0.4228038
0.3794060 0.6204108 0.4228288
0.3880663 0.6204255 0.4229701
0.4237615 0.6205081 0.4237615
0.5079630 0.6209532 0.4280219
0.6227890 0.6227890 0.4525920
0.7440168 0.6357997 0.5428116
0.8677513 0.6899058 0.6603111
0.9924687 0.7903787 0.7841085
0.5253766 0.7433504 0.5327277
0.5255862 0.7433509 0.5327365
0.5267603 0.7433540 0.5327859
0.5330647 0.7433715 0.5330647
0.5610265 0.7434701 0.5346203
0.6357997 0.7440168 0.5428116
0.7467619 0.7467619 0.5789161
0.8683247 0.7617950 0.6695609
0.9925715 0.8158518 0.7859203
0.6569389 0.8676271 0.6581584
0.6569725 0.8676272 0.6581601
0.6571622 0.8676277 0.6581701
0.6582263 0.8676309 0.6582263
0.6639667 0.8676490 0.6585434
0.6899058 0.8677513 0.6603111
0.7617950 0.8683247 0.6695609
0.8714095 0.8714095 0.7075116
0.9931502 0.8870469 0.7953899
0.7835019 0.9924465 0.7837135
0.7835077 0.9924466 0.7837138
0.7835405 0.9924467 0.7837156
0.7837258 0.9924472 0.7837258
0.7847652 0.9924504 0.7837835
0.7903787 0.9924687 0.7841085
0.8158518 0.9925715 0.7859203
0.8870469 0.9931502 0.7953899
0.9963224 0.9963224 0.8336009
0.1862612 0.1862612 0.4982567
0.2074762 0.1864343 0.4982641
0.2718780 0.1873974 0.4983056
0.3778896 0.1925277 0.4985179
0.4991336 0.2334812 0.4991336
0.6208497 0.3857115 0.5076697
0.7434489 0.5271058 0.5607984
0.8676452 0.6572617 0.6639040
0.9924498 0.7835597 0.7847531
0.1864343 0.2074762 0.4982641
0.2076048 0.2076048 0.4982716
0.2719300 0.2083219 0.4983131
0.3779016 0.2121734 0.4985258
0.4991410 0.2451061 0.4991410
0.6208524 0.3871843 0.5076773
0.7434495 0.5273104 0.5608043
0.8676453 0.6572951 0.6639056
0.9924498 0.7835655 0.7847534
0.1873974 0.2718780 0.4983056
0.2083219 0.2719300 0.4983131
0.2722201 0.2722201 0.4983550
0.3779675 0.2737858 0.4985699
0.4991822 0.2891833 0.4991822
0.6208676 0.3949935 0.5077206
0.7434526 0.5284569 0.5608378
0.8676458 0.6574840 0.6639148
0.9924499 0.7835983 0.7847552
0.1925277 0.3778896 0.4985179
0.2121734 0.3779016 0.4985258
0.2737858 0.3779675 0.4985699
0.3782966 0.3782966 0.4987975
0.4994012 0.3814490 0.4994012
0.6209532 0.4280219 0.5079630
0.7434701 0.5346203 0.5610265
0.8676490 0.6585434 0.6639667
0.9924504 0.7837835 0.7847652
0.2334812 0.4991336 0.4991336
0.2451061 0.4991410 0.4991410
0.2891833 0.4991822 0.4991822
0.3814490 0.4994012 0.4994012
0.5000000 0.5000000 0.5000000
0.6214167 0.5092661 0.5092661
0.7435688 0.5620839 0.5620839
0.8676671 0.6642596 0.6642596
0.9924537 0.7848220 0.7848220
0.3857115 0.6208497 0.5076697
0.3871843 0.6208524 0.5076773
0.3949935 0.6208676 0.5077206
0.4280219 0.6209532 0.5079630
0.5092661 0.6214167 0.5092661
0.6232306 0.6232306 0.5174762
0.7441167 0.6361748 0.5677643
0.8677694 0.6901102 0.6658940
0.9924719 0.7904312 0.7851425
0.5271058 0.7434489 0.5607984
0.5273104 0.7434495 0.5608043
0.5284569 0.7434526 0.5608378
0.5346203 0.7434701 0.5610265
0.5620839 0.7435688 0.5620839
0.6361748 0.7441167 0.5677643
0.7468561 0.7468561 0.5949486
0.8683427 0.7618705 0.6744932
0.9925747 0.8158887 0.7869288
0.6572617 0.8676452 0.6639040
0.6572951 0.8676453 0.6639056
0.6574840 0.8676458 0.6639148
0.6585434 0.8676490 0.6639667
0.6642596 0.8676671 0.6642596
0.6901102 0.8677694 0.6658940
0.7618705 0.8683427 0.6744932
0.8714267 0.8714267 0.7104616
0.9931534 0.8870607 0.7962750
0.7835597 0.9924498 0.7847531
0.7835655 0.9924498 0.7847534
0.7835983 0.9924499 0.7847552
0.7837835 0.9924504 0.7847652
0.7848220 0.9924537 0.7848220
0.7904312 0.9924719 0.7851425
0.8158887 0.9925747 0.7869288
0.8870607 0.9931534 0.7962750
0.9963255 0.9963255 0.8341231
0.3759246 0.3759246 0.6203091
0.3776120 0.3759728 0.6203116
0.3864794 0.3762450 0.6203262
0.4228038 0.3777608 0.6204082
0.5076697 0.3857115 0.6208497
0.6226927 0.4257276 0.6226927
0.7439954 0.5361480 0.6357191
0.8677474 0.6590607 0.6898620
0.9924680 0.7838858 0.7903674
0.3759728 0.3776120 0.6203116
0.3776591 0.3776591 0.6203142
0.3865210 0.3779250 0.6203288
0.4228288 0.3794060 0.6204108
0.5076773 0.3871843 0.6208524
0.6226952 0.4265646 0.6226952
0.7439960 0.5363284 0.6357212
0.8677475 0.6590933 0.6898632
0.9924680 0.7838916 0.7903677
0.3762450 0.3864794 0.6203262
0.3779250 0.3865210 0.6203288
0.3867559 0.3867559 0.6203434
0.4229701 0.3880663 0.6204255
0.5077206 0.3949935 0.6208676
0.6227093 0.4311247 0.6227093
0.7439991 0.5373402 0.6357330
0.8677481 0.6592776 0.6898696
0.9924681 0.7839242 0.7903694
0.3777608 0.4228038 0.6204082
0.3794060 0.4228288 0.6204108
0.3880663 0.4229701 0.6204255
0.4237615 0.4237615 0.6205081
0.5079630 0.4280219 0.6209532
0.6227890 0.4525920 0.6227890
0.7440168 0.5428116 0.6357997
0.8677513 0.6603111 0.6899058
0.9924687 0.7841085 0.7903787
0.3857115 0.5076697 0.6208497
0.3871843 0.5076773 0.6208524
0.3949935 0.5077206 0.6208676
0.4280219 0.5079630 0.6209532
0.5092661 0.5092661 0.6214167
0.6232306 0.5174762 0.6232306
0.7441167 0.5677643 0.6361748
0.8677694 0.6658940 0.6901102
0.9924719 0.7851425 0.7904312
0.4257276 0.6226927 0.6226927
0.4265646 0.6226952 0.6226952
0.4311247 0.6227093 0.6227093
0.4525920 0.6227890 0.6227890
0.5174762 0.6232306 0.6232306
0.6250000 0.6250000 0.6250000
0.7446716 0.6382356 0.6382356
0.8678715 0.6912557 0.6912557
0.9924901 0.7907277 0.7907277
0.5361480 0.7439954 0.6357191
0.5363284 0.7439960 0.6357212
0.5373402 0.7439991 0.6357330
0.5428116 0.7440168 0.6357997
0.5677643 0.7441167 0.6361748
0.6382356 0.7446716 0.6382356
0.7473850 0.7473850 0.6494151
0.8684446 0.7622957 0.6974064
0.9925929 0.8160971 0.7923824
0.6590607 0.8677474 0.6898620
0.6590933 0.8677475 0.6898632
0.6592776 0.8677481 0.6898696
0.6603111 0.8677513 0.6899058
0.6658940 0.8677694 0.6901102
0.6912557 0.8678715 0.6912557
0.7622957 0.8684446 0.6974064
0.8715238 0.8715238 0.7251991
0.9931715 0.8871384 0.8010872
0.7838858 0.9924680 0.7903674
0.7838916 0.9924680 0.7903677
0.7839242 0.9924681 0.7903694
0.7841085 0.9924687 0.7903787
0.7851425 0.9924719 0.7904312
0.7907277 0.9924901 0.7907277
0.8160971 0.9925929 0.7923824
0.8871384 0.9931715 0.8010872
0.9963427 0.9963427 0.8370082
0.5250016 0.5250016 0.7433292
0.5252122 0.5250113 0.7433298
0.5263924 0.5250663 0.7433329
0.5327277 0.5253766 0.7433504
0.5607984 0.5271058 0.7434489
0.6357191 0.5361480 0.7439954
0.7467417 0.5749766 0.7467417
0.8683208 0.6684624 0.7617789
0.9925708 0.7857031 0.8158439
0.5250113 0.5252122 0.7433298
0.5252219 0.5252219 0.7433303
0.5264019 0.5252768 0.7433334
0.5327365 0.5255862 0.7433509
0.5608043 0.5273104 0.7434495
0.6357212 0.5363284 0.7439960
0.7467422 0.5750813 0.7467422
0.8683209 0.6684911 0.7617793
0.9925709 0.7857087 0.8158441
0.5250663 0.5263924 0.7433329
0.5252768 0.5264019 0.7433334
0.5264559 0.5264559 0.7433365
0.5327859 0.5267603 0.7433540
0.5608378 0.5284569 0.7434526
0.6357330 0.5373402 0.7439991
0.7467452 0.5756705 0.7467452
0.8683215 0.6686528 0.7617817
0.9925710 0.7857406 0.8158453
0.5253766 0.5327277 0.7433504
0.5255862 0.5327365 0.7433509
0.5267603 0.5327859 0.7433540
0.5330647 0.5330647 0.7433715
0.5610265 0.5346203 0.7434701
0.6357997 0.5428116 0.7440168
0.7467619 0.5789161 0.7467619
0.8683247 0.6695609 0.7617950
0.9925715 0.7859203 0.8158518
0.5271058 0.5607984 0.7434489
0.5273104 0.5608043 0.7434495
0.5284569 0.5608378 0.7434526
0.5346203 0.5610265 0.7434701
0.5620839 0.5620839 0.7435688
0.6361748 0.5677643 0.7441167
0.7468561 0.5949486 0.7468561
0.8683427 0.6744932 0.7618705
0.9925747 0.7869288 0.8158887
0.5361480 0.6357191 0.7439954
0.5363284 0.6357212 0.7439960
0.5373402 0.6357330 0.7439991
0.5428116 0.6357997 0.7440168
0.5677643 0.6361748 0.7441167
0.6382356 0.6382356 0.7446716
0.7473850 0.6494151 0.7473850
0.8684446 0.6974064 0.7622957
0.9925929 0.7923824 0.8160971
0.5749766 0.7467417 0.7467417
0.5750813 0.7467422 0.7467422
0.5756705 0.7467452 0.7467452
0.5789161 0.7467619 0.7467619
0.5949486 0.7468561 0.7468561
0.6494151 0.7473850 0.7473850
0.7500000 0.7500000 0.7500000
0.8690167 0.7646475 0.7646475
0.9926956 0.8172650 0.8172650
0.6684624 0.8683208 0.7617789
0.6684911 0.8683209 0.7617793
0.6686528 0.8683215 0.7617817
0.6695609 0.8683247 0.7617950
0.6744932 0.8683427 0.7618705
0.6974064 0.8684446 0.7622957
0.7646475 0.8690167 0.7646475
0.8720703 0.8720703 0.7768168
0.9932735 0.8875767 0.8235359
0.7857031 0.9925708 0.8158439
0.7857087 0.9925709 0.8158441
0.7857406 0.9925710 0.8158453
0.7859203 0.9925715 0.8158518
0.7869288 0.9925747 0.8158887
0.7923824 0.9925929 0.8160971
0.8172650 0.9926956 0.8172650
0.8875767 0.9932735 0.8235359
0.9964402 0.9964402 0.8514579
0.6568697 0.6568697 0.8676232
0.6569034 0.6568715 0.8676233
0.6570933 0.6568817 0.8676239
0.6581584 0.6569389 0.8676271
0.6639040 0.6572617 0.8676452
0.6898620 0.6590607 0.8677474
0.7617789 0.6684624 0.8683208
0.8714059 0.7068657 0.8714059
0.9931495 0.7951994 0.8870440
0.6568715 0.6569034 0.8676233
0.6569052 0.6569052 0.8676234
0.6570951 0.6569153 0.8676240
0.6581601 0.6569725 0.8676272
0.6639056 0.6572951 0.8676453
0.6898632 0.6590933 0.8677475
0.7617793 0.6684911 0.8683209
0.8714059 0.7068825 0.8714059
0.9931496 0.7952044 0.8870440
0.6568817 0.6570933 0.8676239
0.6569153 0.6570951 0.8676240
0.6571052 0.6571052 0.8676245
0.6581701 0.6571622 0.8676277
0.6639148 0.6574840 0.8676458
0.6898696 0.6592776 0.8677481
0.7617817 0.6686528 0.8683215
0.8714065 0.7069774 0.8714065
0.9931497 0.7952323 0.8870445
0.6569389 0.6581584 0.8676271
0.6569725 0.6581601 0.8676272
0.6571622 0.6581701 0.8676277
0.6582263 0.6582263 0.8676309
0.6639667 0.6585434 0.8676490
0.6899058 0.6603111 0.8677513
0.7617950 0.6695609 0.8683247
0.8714095 0.7075116 0.8714095
0.9931502 0.7953899 0.8870469
0.6572617 0.6639040 0.8676452
0.6572951 0.6639056 0.8676453
0.6574840 0.6639148 0.8676458
0.6585434 0.6639667 0.8676490
0.6642596 0.6642596 0.8676671
0.6901102 0.6658940 0.8677694
0.7618705 0.6744932 0.8683427
0.8714267 0.7104616 0.8714267
0.9931534 0.7962750 0.8870607
0.6590607 0.6898620 0.8677474
0.6590933 0.6898632 0.8677475
0.6592776 0.6898696 0.8677481
0.6603111 0.6899058 0.8677513
0.6658940 0.6901102 0.8677694
0.6912557 0.6912557 0.8678715
0.7622957 0.6974064 0.8684446
0.8715238 0.7251991 0.8715238
0.9931715 0.8010872 0.8871384
0.6684624 0.7617789 0.8683208
0.6684911 0.7617793 0.8683209
0.6686528 0.7617817 0.8683215
0.6695609 0.7617950 0.8683247
0.6744932 0.7618705 0.8683427
0.6974064 0.7622957 0.8684446
0.7646475 0.7646475 0.8690167
0.8720703 0.7768168 0.8720703
0.9932735 0.8235359 0.8875767
0.7068657 0.8714059 0.8714059
0.7068825 0.8714059 0.8714059
0.7069774 0.8714065 0.8714065
0.7075116 0.8714095 0.8714095
0.7104616 0.8714267 0.8714267
0.7251991 0.8715238 0.8715238
0.7768168 0.8720703 0.8720703
0.8750000 0.8750000 0.8750000
0.9938475 0.8900055 0.8900055
0.7951994 0.9931495 0.8870440
0.7952044 0.9931496 0.8870440
0.7952323 0.9931497 0.8870445
0.7953899 0.9931502 0.8870469
0.7962750 0.9931534 0.8870607
0.8010872 0.9931715 0.8871384
0.8235359 0.9932735 0.8875767
0.8900055 0.9938475 0.8900055
0.9969893 0.9969893 0.9024207
0.7834896 0.7834896 0.9924459
0.7834954 0.7834899 0.9924459
0.7835282 0.7834917 0.9924460
0.7837135 0.7835019 0.9924465
0.7847531 0.7835597 0.9924498
0.7903674 0.7838858 0.9924680
0.8158439 0.7857031 0.9925708
0.8870440 0.7951994 0.9931495
0.9963218 0.8334889 0.9963218
0.7834899 0.7834954 0.9924459
0.7834957 0.7834957 0.9924459
0.7835285 0.7834975 0.9924460
0.7837138 0.7835077 0.9924466
0.7847534 0.7835655 0.9924498
0.7903677 0.7838916 0.9924680
0.8158441 0.7857087 0.9925709
0.8870440 0.7952044 0.9931496
0.9963218 0.8334918 0.9963218
0.7834917 0.7835282 0.9924460
0.7834975 0.7835285 0.9924460
0.7835303 0.7835303 0.9924461
0.7837156 0.7835405 0.9924467
0.7847552 0.7835983 0.9924499
0.7903694 0.7839242 0.9924681
0.8158453 0.7857406 0.9925710
0.8870445 0.7952323 0.9931497
0.9963219 0.8335082 0.9963219
0.7835019 0.7837135 0.9924465
0.7835077 0.7837138 0.9924466
0.7835405 0.7837156 0.9924467
0.7837258 0.7837258 0.9924472
0.7847652 0.7837835 0.9924504
0.7903787 0.7841085 0.9924687
0.8158518 0.7859203 0.9925715
0.8870469 0.7953899 0.9931502
0.9963224 0.8336009 0.9963224
0.7835597 0.7847531 0.9924498
0.7835655 0.7847534 0.9924498
0.7835983 0.7847552 0.9924499
0.7837835 0.7847652 0.9924504
0.7848220 0.7848220 0.9924537
0.7904312 0.7851425 0.9924719
0.8158887 0.7869288 0.9925747
0.8870607 0.7962750 0.9931534
0.9963255 0.8341231 0.9963255
0.7838858 0.7903674 0.9924680
0.7838916 0.7903677 0.9924680
0.7839242 0.7903694 0.9924681
0.7841085 0.7903787 0.9924687
0.7851425 0.7904312 0.9924719
0.7907277 0.7907277 0.9924901
0.8160971 0.7923824 0.9925929
0.8871384 0.8010872 0.9931715
0.9963427 0.8370082 0.9963427
0.7857031 0.8158439 0.9925708
0.7857087 0.8158441 0.9925709
0.7857406 0.8158453 0.9925710
0.7859203 0.8158518 0.9925715
0.7869288 0.8158887 0.9925747
0.7923824 0.8160971 0.9925929
0.8172650 0.8172650 0.9926956
0.8875767 0.8235359 0.9932735
0.9964402 0.8514579 0.9964402
0.7951994 0.8870440 0.9931495
0.7952044 0.8870440 0.9931496
0.7952323 0.8870445 0.9931497
0.7953899 0.8870469 0.9931502
0.7962750 0.8870607 0.9931534
0.8010872 0.8871384 0.9931715
0.8235359 0.8875767 0.9932735
0.8900055 0.8900055 0.9938475
0.9969893 0.9024207 0.9969893
0.8334889 0.9963218 0.9963218
0.8334918 0.9963218 0.9963218
0.8335082 0.9963219 0.9963219
0.8336009 0.9963224 0.9963224
0.8341231 0.9963255 0.9963255
0.8370082 0.9963427 0.9963427
0.8514579 0.9964402 0.9964402
0.9024207 0.9969893 0.9969893
1.0000000 1.0000000 1.0000000
