RealBloom/ocio/LUTs/moment_spherical_compression.cube
TITLE "Moment Compression v1m= 0.97 sim=0.94 ITU-R BT.2020 I-ESpherical Chroma Compression v1s=0.9 sis=0.85"
# Compress chroma in two ways. In the moment plane and spherically. Resolution 33
# Reduces the purity in the moment plane relative to the color space ITU-R BT.2020 and illuminant E
# At a purity of 1.0, the compression is 3.0%.
# Very high purities are compressed by 6.0%.
# At a radius of 1.0, the compression is 10.0%.
# Very high radii are compressed by 15.0%.
LUT_3D_SIZE 33
0.0000000 0.0000000 0.0000000
0.0312500 0.0000000 0.0000000
0.0625000 0.0000000 0.0000000
0.0937500 0.0000000 0.0000000
0.1250000 0.0000000 0.0000000
0.1562500 0.0000000 0.0000000
0.1875000 0.0000001 0.0000001
0.2187498 0.0000016 0.0000016
0.2499989 0.0000183 0.0000183
0.2812441 0.0001448 0.0001448
0.3124775 0.0008524 0.0008524
0.3436816 0.0039057 0.0039057
0.3748285 0.0140408 0.0140408
0.4058835 0.0385910 0.0385910
0.4368143 0.0801250 0.0801250
0.4676034 0.1320236 0.1320236
0.4982567 0.1862612 0.1862612
0.5288044 0.2385976 0.2385976
0.5592943 0.2876541 0.2876541
0.5897798 0.3333164 0.3333164
0.6203091 0.3759246 0.3759246
0.6509166 0.4159474 0.4159474
0.6816213 0.4538578 0.4538578
0.7124276 0.4900856 0.4900856
0.7433292 0.5250016 0.5250016
0.7743141 0.5589139 0.5589139
0.8053675 0.5920723 0.5920723
0.8364748 0.6246736 0.6246736
0.8676232 0.6568697 0.6568697
0.8988019 0.6887754 0.6887754
0.9300026 0.7204756 0.7204756
0.9612188 0.7520322 0.7520322
0.9924459 0.7834896 0.7834896
0.0000000 0.0312500 0.0000000
0.0312500 0.0312500 0.0000000
0.0625000 0.0312500 0.0000000
0.0937500 0.0312500 0.0000000
0.1250000 0.0312500 0.0000000
0.1562500 0.0312500 0.0000000
0.1875000 0.0312500 0.0000001
0.2187499 0.0312509 0.0000015
0.2499989 0.0312611 0.0000180
0.2812443 0.0313401 0.0001437
0.3124778 0.0317905 0.0008500
0.3436821 0.0337698 0.0039031
0.3748293 0.0405812 0.0140426
0.4058844 0.0583613 0.0386033
0.4368153 0.0918386 0.0801464
0.4676044 0.1379230 0.1320468
0.4982576 0.1890771 0.1862814
0.5288052 0.2399603 0.2386133
0.5592949 0.2883402 0.2876656
0.5897803 0.3336778 0.3333246
0.6203094 0.3761231 0.3759302
0.6509168 0.4160605 0.4159512
0.6816215 0.4539242 0.4538604
0.7124277 0.4901257 0.4900874
0.7433293 0.5250261 0.5250027
0.7743141 0.5589292 0.5589147
0.8053675 0.5920820 0.5920728
0.8364748 0.6246798 0.6246739
0.8676232 0.6568737 0.6568700
0.8988019 0.6887779 0.6887756
0.9300026 0.7204772 0.7204757
0.9612188 0.7520333 0.7520323
0.9924459 0.7834902 0.7834896
0.0000000 0.0625000 0.0000000
0.0312500 0.0625000 0.0000000
0.0625000 0.0625000 0.0000000
0.0937500 0.0625000 0.0000000
0.1250000 0.0625000 0.0000000
0.1562500 0.0625000 0.0000000
0.1875000 0.0625000 0.0000001
0.2187499 0.0625005 0.0000015
0.2499990 0.0625064 0.0000175
0.2812445 0.0625548 0.0001421
0.3124782 0.0628378 0.0008465
0.3436829 0.0641072 0.0038990
0.3748304 0.0686050 0.0140453
0.4058858 0.0810551 0.0386222
0.4368168 0.1068396 0.0801794
0.4676059 0.1461695 0.1320827
0.4982589 0.1932153 0.1863126
0.5288063 0.2420127 0.2386375
0.5592957 0.2893858 0.2876833
0.5897809 0.3342316 0.3333371
0.6203098 0.3764282 0.3759389
0.6509171 0.4162346 0.4159571
0.6816217 0.4540266 0.4538643
0.7124278 0.4901873 0.4900900
0.7433294 0.5250640 0.5250044
0.7743142 0.5589528 0.5589158
0.8053675 0.5920968 0.5920736
0.8364749 0.6246892 0.6246744
0.8676232 0.6568797 0.6568703
0.8988019 0.6887818 0.6887758
0.9300026 0.7204797 0.7204759
0.9612188 0.7520349 0.7520324
0.9924459 0.7834913 0.7834897
0.0000000 0.0937500 0.0000000
0.0312500 0.0937500 0.0000000
0.0625000 0.0937500 0.0000000
0.0937500 0.0937500 0.0000000
0.1250000 0.0937500 0.0000000
0.1562500 0.0937500 0.0000000
0.1875000 0.0937500 0.0000001
0.2187499 0.0937502 0.0000013
0.2499991 0.0937535 0.0000168
0.2812448 0.0937821 0.0001397
0.3124789 0.0939566 0.0008410
0.3436841 0.0947600 0.0038927
0.3748322 0.0976841 0.0140493
0.4058880 0.1061611 0.0386511
0.4368192 0.1251844 0.0802301
0.4676082 0.1572854 0.1321379
0.4982610 0.1991654 0.1863605
0.5288080 0.2450677 0.2386747
0.5592971 0.2909691 0.2877106
0.5897819 0.3350774 0.3333564
0.6203105 0.3768962 0.3759522
0.6509176 0.4165023 0.4159662
0.6816220 0.4541842 0.4538704
0.7124280 0.4902823 0.4900941
0.7433296 0.5251223 0.5250071
0.7743143 0.5589892 0.5589176
0.8053676 0.5921198 0.5920747
0.8364749 0.6247038 0.6246752
0.8676232 0.6568890 0.6568708
0.8988020 0.6887878 0.6887761
0.9300026 0.7204836 0.7204761
0.9612188 0.7520374 0.7520325
0.9924459 0.7834929 0.7834897
0.0000000 0.1250000 0.0000000
0.0312500 0.1250000 0.0000000
0.0625000 0.1250000 0.0000000
0.0937500 0.1250000 0.0000000
0.1250000 0.1250000 0.0000000
0.1562500 0.1250000 0.0000000
0.1875000 0.1250000 0.0000001
0.2187499 0.1250001 0.0000012
0.2499992 0.1250017 0.0000160
0.2812452 0.1250177 0.0001362
0.3124799 0.1251221 0.0008329
0.3436859 0.1256212 0.0038831
0.3748348 0.1274921 0.0140552
0.4058913 0.1331294 0.0386953
0.4368228 0.1466359 0.0803080
0.4676117 0.1716449 0.1322228
0.4982641 0.2074762 0.1864343
0.5288106 0.2495395 0.2387321
0.5592991 0.2933448 0.2877527
0.5897834 0.3363626 0.3333862
0.6203116 0.3776120 0.3759728
0.6509184 0.4169132 0.4159802
0.6816225 0.4544265 0.4538799
0.7124284 0.4904285 0.4901003
0.7433298 0.5252122 0.5250113
0.7743145 0.5590453 0.5589203
0.8053677 0.5921551 0.5920765
0.8364750 0.6247262 0.6246764
0.8676233 0.6569034 0.6568715
0.8988020 0.6887970 0.6887766
0.9300026 0.7204895 0.7204764
0.9612188 0.7520412 0.7520327
0.9924459 0.7834954 0.7834899
0.0000000 0.1562500 0.0000000
0.0312500 0.1562500 0.0000000
0.0625000 0.1562500 0.0000000
0.0937500 0.1562500 0.0000000
0.1250000 0.1562500 0.0000000
0.1562500 0.1562500 0.0000000
0.1875000 0.1562500 0.0000001
0.2187499 0.1562500 0.0000011
0.2499993 0.1562507 0.0000150
0.2812458 0.1562589 0.0001316
0.3124813 0.1563182 0.0008213
0.3436886 0.1566196 0.0038688
0.3748388 0.1577937 0.0140643
0.4058964 0.1614631 0.0387627
0.4368283 0.1707399 0.0804272
0.4676172 0.1893618 0.1323532
0.4982690 0.2186683 0.1865478
0.5288147 0.2559347 0.2388205
0.5593023 0.2968619 0.2878175
0.5897858 0.3383010 0.3334321
0.6203133 0.3787023 0.3760046
0.6509196 0.4175423 0.4160018
0.6816234 0.4547987 0.4538944
0.7124289 0.4906535 0.4901100
0.7433301 0.5253506 0.5250177
0.7743147 0.5591316 0.5589246
0.8053679 0.5922096 0.5920793
0.8364751 0.6247608 0.6246782
0.8676234 0.6569255 0.6568727
0.8988020 0.6888112 0.6887773
0.9300027 0.7204987 0.7204769
0.9612188 0.7520471 0.7520331
0.9924459 0.7834992 0.7834901
0.0000001 0.1875000 0.0000001
0.0312500 0.1875000 0.0000001
0.0625000 0.1875000 0.0000001
0.0937500 0.1875000 0.0000001
0.1250000 0.1875000 0.0000001
0.1562500 0.1875000 0.0000001
0.1875000 0.1875000 0.0000002
0.2187499 0.1875000 0.0000013
0.2499995 0.1875002 0.0000146
0.2812464 0.1875036 0.0001269
0.3124832 0.1875346 0.0008065
0.3436924 0.1877083 0.0038491
0.3748447 0.1884252 0.0140785
0.4059039 0.1907608 0.0388653
0.4368368 0.1969500 0.0806093
0.4676255 0.2102520 0.1325530
0.4982765 0.2331108 0.1867221
0.5288209 0.2648052 0.2389564
0.5593072 0.3019709 0.2879173
0.5897895 0.3411919 0.3335028
0.6203160 0.3803520 0.3760535
0.6509214 0.4185020 0.4160352
0.6816246 0.4553689 0.4539168
0.7124298 0.4909991 0.4901250
0.7433307 0.5255635 0.5250276
0.7743151 0.5592646 0.5589311
0.8053681 0.5922935 0.5920836
0.8364752 0.6248142 0.6246810
0.8676235 0.6569596 0.6568745
0.8988021 0.6888331 0.6887785
0.9300027 0.7205128 0.7204777
0.9612189 0.7520562 0.7520336
0.9924459 0.7835051 0.7834904
0.0000016 0.2187498 0.0000016
0.0312509 0.2187499 0.0000015
0.0625005 0.2187499 0.0000015
0.0937502 0.2187499 0.0000013
0.1250001 0.2187499 0.0000012
0.1562500 0.2187499 0.0000011
0.1875000 0.2187499 0.0000013
0.2187499 0.2187499 0.0000032
0.2499995 0.2187499 0.0000174
0.2812471 0.2187508 0.0001270
0.3124856 0.2187644 0.0007941
0.3436976 0.2188569 0.0038281
0.3748533 0.2192762 0.0141044
0.4059152 0.2207215 0.0390220
0.4368495 0.2247385 0.0808866
0.4676382 0.2338944 0.1328583
0.4982880 0.2509108 0.1869893
0.5288305 0.2766511 0.2391652
0.5593147 0.3092031 0.2880709
0.5897951 0.3454351 0.3336117
0.6203200 0.3828247 0.3761289
0.6509243 0.4199574 0.4160865
0.6816265 0.4562396 0.4539513
0.7124311 0.4915288 0.4901480
0.7433316 0.5258907 0.5250428
0.7743156 0.5594692 0.5589411
0.8053685 0.5924227 0.5920901
0.8364755 0.6248964 0.6246853
0.8676236 0.6570122 0.6568773
0.8988022 0.6888669 0.6887804
0.9300028 0.7205346 0.7204788
0.9612189 0.7520703 0.7520343
0.9924459 0.7835142 0.7834909
0.0000183 0.2499989 0.0000183
0.0312611 0.2499989 0.0000180
0.0625064 0.2499990 0.0000175
0.0937535 0.2499991 0.0000168
0.1250017 0.2499992 0.0000160
0.1562507 0.2499993 0.0000150
0.1875002 0.2499995 0.0000146
0.2187499 0.2499995 0.0000174
0.2499994 0.2499994 0.0000366
0.2812474 0.2499992 0.0001520
0.3124880 0.2500032 0.0008114
0.3437041 0.2500454 0.0038320
0.3748650 0.2502730 0.0141656
0.4059316 0.2511314 0.0392664
0.4368685 0.2536599 0.0813083
0.4676575 0.2597515 0.1333230
0.4983056 0.2718780 0.1873974
0.5288453 0.2917947 0.2394851
0.5593263 0.3191052 0.2883067
0.5898038 0.3515262 0.3337792
0.6203262 0.3864794 0.3762450
0.6509286 0.4221459 0.4161656
0.6816295 0.4575621 0.4540046
0.7124330 0.4923381 0.4901835
0.7433329 0.5263924 0.5250663
0.7743165 0.5597836 0.5589566
0.8053690 0.5926215 0.5921003
0.8364758 0.6250230 0.6246919
0.8676239 0.6570933 0.6568817
0.8988024 0.6889190 0.6887832
0.9300029 0.7205682 0.7204807
0.9612190 0.7520920 0.7520355
0.9924460 0.7835282 0.7834917
0.0001448 0.2812441 0.0001448
0.0313401 0.2812443 0.0001437
0.0625548 0.2812445 0.0001421
0.0937821 0.2812448 0.0001397
0.1250177 0.2812452 0.0001362
0.1562589 0.2812458 0.0001316
0.1875036 0.2812464 0.0001269
0.2187508 0.2812471 0.0001270
0.2499992 0.2812474 0.0001520
0.2812471 0.2812471 0.0002892
0.3124894 0.2812466 0.0009669
0.3437110 0.2812599 0.0039753
0.3748802 0.2813673 0.0143541
0.4059546 0.2818432 0.0396740
0.4368964 0.2833713 0.0819534
0.4676864 0.2872866 0.1340278
0.4983322 0.2955879 0.1880186
0.5288678 0.3102815 0.2399740
0.5593441 0.3321276 0.2886681
0.5898171 0.3600156 0.3340364
0.6203358 0.3917763 0.3764235
0.6509353 0.4253963 0.4162874
0.6816341 0.4595553 0.4540866
0.7124361 0.4935688 0.4902381
0.7433349 0.5271593 0.5251025
0.7743178 0.5602658 0.5589804
0.8053699 0.5929270 0.5921159
0.8364764 0.6252179 0.6247021
0.8676242 0.6572181 0.6568883
0.8988026 0.6889993 0.6887875
0.9300030 0.7206199 0.7204835
0.9612191 0.7521254 0.7520374
0.9924460 0.7835498 0.7834929
0.0008524 0.3124775 0.0008524
0.0317905 0.3124778 0.0008500
0.0628378 0.3124782 0.0008465
0.0939566 0.3124789 0.0008410
0.1251221 0.3124799 0.0008329
0.1563182 0.3124813 0.0008213
0.1875346 0.3124832 0.0008065
0.2187644 0.3124856 0.0007941
0.2500032 0.3124880 0.0008114
0.2812466 0.3124894 0.0009669
0.3124887 0.3124887 0.0016948
0.3437159 0.3124887 0.0047012
0.3748969 0.3125256 0.0150259
0.4059847 0.3127578 0.0404652
0.4369359 0.3136237 0.0829695
0.4677289 0.3160377 0.1350967
0.4983724 0.3215030 0.1889593
0.5289021 0.3318654 0.2407179
0.5593714 0.3485005 0.2892204
0.5898376 0.3714183 0.3344307
0.6203506 0.3992523 0.3766978
0.6509456 0.4301386 0.4164747
0.6816411 0.4625253 0.4542128
0.7124408 0.4954267 0.4903224
0.7433381 0.5283262 0.5251583
0.7743199 0.5610032 0.5590172
0.8053713 0.5933957 0.5921400
0.8364773 0.6255173 0.6247179
0.8676248 0.6574102 0.6568986
0.8988030 0.6891229 0.6887942
0.9300033 0.7206996 0.7204878
0.9612192 0.7521769 0.7520402
0.9924461 0.7835831 0.7834947
0.0039057 0.3436816 0.0039057
0.0337698 0.3436821 0.0039031
0.0641072 0.3436829 0.0038990
0.0947600 0.3436841 0.0038927
0.1256212 0.3436859 0.0038831
0.1566196 0.3436886 0.0038688
0.1877083 0.3436924 0.0038491
0.2188569 0.3436976 0.0038281
0.2500454 0.3437041 0.0038320
0.2812599 0.3437110 0.0039753
0.3124887 0.3437159 0.0047012
0.3437158 0.3437158 0.0076108
0.3749101 0.3437200 0.0174847
0.4060192 0.3438066 0.0423892
0.4369885 0.3442436 0.0847094
0.4677899 0.3456439 0.1367380
0.4984319 0.3490895 0.1903786
0.5289539 0.3560887 0.2418433
0.5594130 0.3681601 0.2900606
0.5898690 0.3860900 0.3350333
0.6203733 0.4094501 0.3771183
0.6509615 0.4368915 0.4167625
0.6816520 0.4668788 0.4544070
0.7124481 0.4982012 0.4904521
0.7433429 0.5300898 0.5252443
0.7743231 0.5621258 0.5590738
0.8053734 0.5941127 0.5921772
0.8364786 0.6259767 0.6247422
0.8676257 0.6577054 0.6569144
0.8988035 0.6893131 0.6888045
0.9300036 0.7208224 0.7204946
0.9612195 0.7522562 0.7520445
0.9924463 0.7836344 0.7834975
0.0140408 0.3748285 0.0140408
0.0405812 0.3748293 0.0140426
0.0686050 0.3748304 0.0140453
0.0976841 0.3748322 0.0140493
0.1274921 0.3748348 0.0140552
0.1577937 0.3748388 0.0140643
0.1884252 0.3748447 0.0140785
0.2192762 0.3748533 0.0141044
0.2502730 0.3748650 0.0141656
0.2813673 0.3748802 0.0143541
0.3125256 0.3748969 0.0150259
0.3437200 0.3749101 0.0174847
0.3749143 0.3749143 0.0257889
0.4060494 0.3749327 0.0479556
0.4370511 0.3751089 0.0882256
0.4678726 0.3758407 0.1393830
0.4985179 0.3778896 0.1925277
0.5290312 0.3824079 0.2435362
0.5594760 0.3907710 0.2913311
0.5899170 0.4041194 0.3359499
0.6204082 0.4228038 0.3777608
0.6509860 0.4462065 0.4172036
0.6816687 0.4731171 0.4547054
0.7124594 0.5022815 0.4906517
0.7433504 0.5327277 0.5253766
0.7743280 0.5638237 0.5591611
0.8053766 0.5952045 0.5922344
0.8364807 0.6266794 0.6247796
0.8676271 0.6581584 0.6569389
0.8988044 0.6896054 0.6888204
0.9300042 0.7210113 0.7205049
0.9612198 0.7523784 0.7520513
0.9924465 0.7837135 0.7835019
0.0385910 0.4058835 0.0385910
0.0583613 0.4058844 0.0386033
0.0810551 0.4058858 0.0386222
0.1061611 0.4058880 0.0386511
0.1331294 0.4058913 0.0386953
0.1614631 0.4058964 0.0387627
0.1907608 0.4059039 0.0388653
0.2207215 0.4059152 0.0390220
0.2511314 0.4059316 0.0392664
0.2818432 0.4059546 0.0396740
0.3127578 0.4059847 0.0404652
0.3438066 0.4060192 0.0423892
0.3749327 0.4060494 0.0479556
0.4060670 0.4060670 0.0635966
0.4371108 0.4061192 0.0967203
0.4679743 0.4064365 0.1441684
0.4986368 0.4075459 0.1958707
0.5291440 0.4103024 0.2460775
0.5595705 0.4158309 0.2932387
0.5899900 0.4252998 0.3373356
0.6204616 0.4395164 0.3787383
0.6510235 0.4585643 0.4178778
0.6816944 0.4817914 0.4551628
0.7124767 0.5081542 0.4909582
0.7433619 0.5366160 0.5255803
0.7743356 0.5663662 0.5592954
0.8053815 0.5968567 0.5923226
0.8364840 0.6277500 0.6248373
0.8676292 0.6588514 0.6569765
0.8988058 0.6900539 0.6888450
0.9300051 0.7213016 0.7205209
0.9612204 0.7525665 0.7520616
0.9924469 0.7838353 0.7835086
0.0801250 0.4368143 0.0801250
0.0918386 0.4368153 0.0801464
0.1068396 0.4368168 0.0801794
0.1251844 0.4368192 0.0802301
0.1466359 0.4368228 0.0803080
0.1707399 0.4368283 0.0804272
0.1969500 0.4368368 0.0806093
0.2247385 0.4368495 0.0808866
0.2536599 0.4368685 0.0813083
0.2833713 0.4368964 0.0819534
0.3136237 0.4369359 0.0829695
0.3442436 0.4369885 0.0847094
0.3751089 0.4370511 0.0882256
0.4061192 0.4371108 0.0967203
0.4371580 0.4371580 0.1171474
0.4680793 0.4372744 0.1542828
0.4987876 0.4377894 0.2015012
0.5293023 0.4393353 0.2499434
0.5597096 0.4427955 0.2960861
0.5901000 0.4491979 0.3394134
0.6205429 0.4594951 0.3802156
0.6510811 0.4742493 0.4189035
0.6817340 0.4934101 0.4558619
0.7125034 0.5163671 0.4914282
0.7433796 0.5422298 0.5258931
0.7743473 0.5701197 0.5595021
0.8053892 0.5993327 0.5924585
0.8364890 0.6293705 0.6249263
0.8676324 0.6599072 0.6570346
0.8988079 0.6907403 0.6888828
0.9300065 0.7217472 0.7205455
0.9612213 0.7528555 0.7520776
0.9924475 0.7840228 0.7835190
0.1320236 0.4676034 0.1320236
0.1379230 0.4676044 0.1320468
0.1461695 0.4676059 0.1320827
0.1572854 0.4676082 0.1321379
0.1716449 0.4676117 0.1322228
0.1893618 0.4676172 0.1323532
0.2102520 0.4676255 0.1325530
0.2338944 0.4676382 0.1328583
0.2597515 0.4676575 0.1333230
0.2872866 0.4676864 0.1340278
0.3160377 0.4677289 0.1350967
0.3456439 0.4677899 0.1367380
0.3758407 0.4678726 0.1393830
0.4064365 0.4679743 0.1441684
0.4372744 0.4680793 0.1542828
0.4681790 0.4681790 0.1759941
0.4989542 0.4683984 0.2122728
0.5295092 0.4691627 0.2561432
0.5599076 0.4711706 0.3003532
0.5902631 0.4752768 0.3425031
0.6206659 0.4823833 0.3824289
0.6511690 0.4932599 0.4204534
0.6817947 0.5083131 0.4569254
0.7125444 0.5274446 0.4921466
0.7434069 0.5501128 0.5263727
0.7743653 0.5755510 0.5598197
0.8054010 0.6029922 0.5926675
0.8364967 0.6318004 0.6250632
0.8676374 0.6615059 0.6571240
0.8988112 0.6917861 0.6889411
0.9300086 0.7224290 0.7205834
0.9612227 0.7532990 0.7521023
0.9924484 0.7843110 0.7835350
0.1862612 0.4982567 0.1862612
0.1890771 0.4982576 0.1862814
0.1932153 0.4982589 0.1863126
0.1991654 0.4982610 0.1863605
0.2074762 0.4982641 0.1864343
0.2186683 0.4982690 0.1865478
0.2331108 0.4982765 0.1867221
0.2509108 0.4982880 0.1869893
0.2718780 0.4983056 0.1873974
0.2955879 0.4983322 0.1880186
0.3215030 0.4983724 0.1889593
0.3490895 0.4984319 0.1903786
0.3778896 0.4985179 0.1925277
0.4075459 0.4986368 0.1958707
0.4377894 0.4987876 0.2015012
0.4683984 0.4989542 0.2122728
0.4991336 0.4991336 0.2334812
0.5297519 0.4994969 0.2671293
0.5601736 0.5005479 0.3069618
0.5904985 0.5030087 0.3470852
0.6208497 0.5076697 0.3857115
0.6513026 0.5153105 0.4227743
0.6818877 0.5265685 0.4585324
0.7126074 0.5417643 0.4932394
0.7434489 0.5607984 0.5271058
0.7743930 0.5831997 0.5603065
0.8054192 0.6082954 0.5929885
0.8365085 0.6353944 0.6252738
0.8676452 0.6639040 0.6572617
0.8988162 0.6933698 0.6890308
0.9300119 0.7234679 0.7206418
0.9612248 0.7539777 0.7521403
0.9924498 0.7847531 0.7835597
0.2385976 0.5288044 0.2385976
0.2399603 0.5288052 0.2386133
0.2420127 0.5288063 0.2386375
0.2450677 0.5288080 0.2386747
0.2495395 0.5288106 0.2387321
0.2559347 0.5288147 0.2388205
0.2648052 0.5288209 0.2389564
0.2766511 0.5288305 0.2391652
0.2917947 0.5288453 0.2394851
0.3102815 0.5288678 0.2399740
0.3318654 0.5289021 0.2407179
0.3560887 0.5289539 0.2418433
0.3824079 0.5290312 0.2435362
0.4103024 0.5291440 0.2460775
0.4393353 0.5293023 0.2499434
0.4691627 0.5295092 0.2561432
0.4994969 0.5297519 0.2671293
0.5300376 0.5300376 0.2872653
0.5605021 0.5305802 0.3179880
0.5908226 0.5319353 0.3540026
0.6211183 0.5348116 0.3905431
0.6515033 0.5399233 0.4262098
0.6820293 0.5479506 0.4609377
0.7127040 0.5594455 0.4948907
0.7435135 0.5746901 0.5282211
0.7744357 0.5936047 0.5610507
0.8054472 0.6157789 0.5934807
0.8365268 0.6406084 0.6255974
0.8676571 0.6674529 0.6574735
0.8988240 0.6957461 0.6891691
0.9300169 0.7250415 0.7207319
0.9612281 0.7550121 0.7521988
0.9924519 0.7854297 0.7835978
0.2876541 0.5592943 0.2876541
0.2883402 0.5592949 0.2876656
0.2893858 0.5592957 0.2876833
0.2909691 0.5592971 0.2877106
0.2933448 0.5592991 0.2877527
0.2968619 0.5593023 0.2878175
0.3019709 0.5593072 0.2879173
0.3092031 0.5593147 0.2880709
0.3191052 0.5593263 0.2883067
0.3321276 0.5593441 0.2886681
0.3485005 0.5593714 0.2892204
0.3681601 0.5594130 0.2900606
0.3907710 0.5594760 0.2913311
0.4158309 0.5595705 0.2932387
0.4427955 0.5597096 0.2960861
0.4711706 0.5599076 0.3003532
0.5005479 0.5601736 0.3069618
0.5305802 0.5605021 0.3179880
0.5609150 0.5609150 0.3369822
0.5912406 0.5616604 0.3650056
0.6214959 0.5633158 0.3977003
0.6517996 0.5665529 0.4312390
0.6822431 0.5720143 0.4644934
0.7128515 0.5803100 0.4973616
0.7436127 0.5919440 0.5299062
0.7745014 0.6071868 0.5621829
0.8054903 0.6259850 0.5942331
0.8365550 0.6479765 0.6260936
0.8676755 0.6726051 0.6577990
0.8988359 0.6992639 0.6893818
0.9300247 0.7274029 0.7208705
0.9612331 0.7565787 0.7522890
0.9924551 0.7864609 0.7836564
0.3333164 0.5897798 0.3333164
0.3336778 0.5897803 0.3333246
0.3342316 0.5897809 0.3333371
0.3350774 0.5897819 0.3333564
0.3363626 0.5897834 0.3333862
0.3383010 0.5897858 0.3334321
0.3411919 0.5897895 0.3335028
0.3454351 0.5897951 0.3336117
0.3515262 0.5898038 0.3337792
0.3600156 0.5898171 0.3340364
0.3714183 0.5898376 0.3344307
0.3860900 0.5898690 0.3350333
0.4041194 0.5899170 0.3359499
0.4252998 0.5899900 0.3373356
0.4491979 0.5901000 0.3394134
0.4752768 0.5902631 0.3425031
0.5030087 0.5904985 0.3470852
0.5319353 0.5908226 0.3540026
0.5616604 0.5912406 0.3650056
0.5917922 0.5917922 0.3829605
0.6220012 0.5927486 0.4086605
0.6522240 0.5946828 0.4385838
0.6825617 0.5982186 0.4696780
0.7130753 0.6039416 0.5010107
0.7437644 0.6124178 0.5324273
0.7746023 0.6241282 0.5638935
0.8055568 0.6393459 0.5953779
0.8365985 0.6580427 0.6268520
0.8677038 0.6798930 0.6582980
0.8988543 0.7043737 0.6897085
0.9300366 0.7308995 0.7210838
0.9612409 0.7589300 0.7524279
0.9924602 0.7880229 0.7837467
0.3759246 0.6203091 0.3759246
0.3761231 0.6203094 0.3759302
0.3764282 0.6203098 0.3759389
0.3768962 0.6203105 0.3759522
0.3776120 0.6203116 0.3759728
0.3787023 0.6203133 0.3760046
0.3803520 0.6203160 0.3760535
0.3828247 0.6203200 0.3761289
0.3864794 0.6203262 0.3762450
0.3917763 0.6203358 0.3764235
0.3992523 0.6203506 0.3766978
0.4094501 0.6203733 0.3771183
0.4228038 0.6204082 0.3777608
0.4395164 0.6204616 0.3787383
0.4594951 0.6205429 0.3802156
0.4823833 0.6206659 0.3824289
0.5076697 0.6208497 0.3857115
0.5348116 0.6211183 0.3905431
0.5633158 0.6214959 0.3977003
0.5927486 0.6220012 0.4086605
0.6226927 0.6226927 0.4257276
0.6528094 0.6238533 0.4494993
0.6830251 0.6260326 0.4771693
0.7134111 0.6298062 0.5063160
0.7439954 0.6357191 0.5361480
0.7747570 0.6443134 0.5664525
0.8056589 0.6560624 0.5971075
0.8366654 0.6712476 0.6280059
0.8677474 0.6898620 0.6590607
0.8988827 0.7116065 0.6902095
0.9300551 0.7359803 0.7214114
0.9612529 0.7624123 0.7526416
0.9924680 0.7903674 0.7838858
0.4159474 0.6509166 0.4159474
0.4160605 0.6509168 0.4159512
0.4162346 0.6509171 0.4159571
0.4165023 0.6509176 0.4159662
0.4169132 0.6509184 0.4159802
0.4175423 0.6509196 0.4160018
0.4185020 0.6509214 0.4160352
0.4199574 0.6509243 0.4160865
0.4221459 0.6509286 0.4161656
0.4253963 0.6509353 0.4162874
0.4301386 0.6509456 0.4164747
0.4368915 0.6509615 0.4167625
0.4462065 0.6509860 0.4172036
0.4585643 0.6510235 0.4178778
0.4742493 0.6510811 0.4189035
0.4932599 0.6511690 0.4204534
0.5153105 0.6513026 0.4227743
0.5399233 0.6515033 0.4262098
0.5665529 0.6517996 0.4312390
0.5946828 0.6522240 0.4385838
0.6238533 0.6528094 0.4494993
0.6536326 0.6536326 0.4658344
0.6836802 0.6549790 0.4880446
0.7139058 0.6573641 0.5139208
0.7443441 0.6613209 0.5415458
0.7749932 0.6673684 0.5702272
0.8058156 0.6760384 0.5996945
0.8367683 0.6878045 0.6297493
0.8678146 0.7029578 0.6602212
0.8989265 0.7215084 0.6909753
0.9300835 0.7431754 0.7219138
0.9612713 0.7674735 0.7529699
0.9924800 0.7938401 0.7840998
0.4538578 0.6816213 0.4538578
0.4539242 0.6816215 0.4538604
0.4540266 0.6816217 0.4538643
0.4541842 0.6816220 0.4538704
0.4544265 0.6816225 0.4538799
0.4547987 0.6816234 0.4538944
0.4553689 0.6816246 0.4539168
0.4562396 0.6816265 0.4539513
0.4575621 0.6816295 0.4540046
0.4595553 0.6816341 0.4540866
0.4625253 0.6816411 0.4542128
0.4668788 0.6816520 0.4544070
0.4731171 0.6816687 0.4547054
0.4817914 0.6816944 0.4551628
0.4934101 0.6817340 0.4558619
0.5083131 0.6817947 0.4569254
0.5265685 0.6818877 0.4585324
0.5479506 0.6820293 0.4609377
0.5720143 0.6822431 0.4644934
0.5982186 0.6825617 0.4696780
0.6260326 0.6830251 0.4771693
0.6549790 0.6836802 0.4880446
0.6846205 0.6846205 0.5037910
0.7146187 0.6861272 0.5247623
0.7448630 0.6886784 0.5492374
0.7753512 0.6927722 0.5756948
0.8060553 0.6989134 0.6035093
0.8369264 0.7076311 0.6323569
0.8679180 0.7194029 0.6619746
0.8989939 0.7345287 0.6921405
0.9301273 0.7530314 0.7226818
0.9612998 0.7746430 0.7534733
0.9924984 0.7988880 0.7844285
0.4900856 0.7124276 0.4900856
0.4901257 0.7124277 0.4900874
0.4901873 0.7124278 0.4900900
0.4902823 0.7124280 0.4900941
0.4904285 0.7124284 0.4901003
0.4906535 0.7124289 0.4901100
0.4909991 0.7124298 0.4901250
0.4915288 0.7124311 0.4901480
0.4923381 0.7124330 0.4901835
0.4935688 0.7124361 0.4902381
0.4954267 0.7124408 0.4903224
0.4982012 0.7124481 0.4904521
0.5022815 0.7124594 0.4906517
0.5081542 0.7124767 0.4909582
0.5163671 0.7125034 0.4914282
0.5274446 0.7125444 0.4921466
0.5417643 0.7126074 0.4932394
0.5594455 0.7127040 0.4948907
0.5803100 0.7128515 0.4973616
0.6039416 0.7130753 0.5010107
0.6298062 0.7134111 0.5063160
0.6573641 0.7139058 0.5139208
0.6861272 0.7146187 0.5247623
0.7156580 0.7156580 0.5400452
