RealBloom/ocio/LUTs/moment_spherical_compression.cube
TITLE "Moment Compression v1m= 0.97 sim=0.94 ITU-R BT.2020 I-ESpherical Chroma Compression v1s=0.9 sis=0.85"
# Compress chroma in two ways. In the moment plane and spherically. Resolution 33
# Reduces the purity in the moment plane relative to the color space ITU-R BT.2020 and illuminant E
# At a purity of 1.0, the compression is 3.0%.
# Very high purities are compressed by 6.0%.
# At a radius of 1.0, the compression is 10.0%.
# Very high radii are compressed by 15.0%.
LUT_3D_SIZE 5
0.0000000 0.0000000 0.0000000
0.2499989 0.0000183 0.0000183
0.4982567 0.1862612 0.1862612
0.7433292 0.5250016 0.5250016
0.9924459 0.7834896 0.7834896
0.0000183 0.2499989 0.0000183
0.2499994 0.2499994 0.0000366
0.4983056 0.2718780 0.1873974
0.7433329 0.5263924 0.5250663
0.9924460 0.7835282 0.7834917
0.1862612 0.4982567 0.1862612
0.2718780 0.4983056 0.1873974
0.4991336 0.4991336 0.2334812
0.7434489 0.5607984 0.5271058
0.9924498 0.7847531 0.7835597
0.5250016 0.7433292 0.5250016
0.5263924 0.7433329 0.5250663
0.5607984 0.7434489 0.5271058
0.7467417 0.7467417 0.5749766
0.9925708 0.8158439 0.7857031
0.7834896 0.9924459 0.7834896
0.7835282 0.9924460 0.7834917
0.7847531 0.9924498 0.7835597
0.8158439 0.9925708 0.7857031
0.9963218 0.9963218 0.8334889
0.0000183 0.0000183 0.2499989
0.2499994 0.0000366 0.2499994
0.4983056 0.1873974 0.2718780
0.7433329 0.5250663 0.5263924
0.9924460 0.7834917 0.7835282
0.0000366 0.2499994 0.2499994
0.2500000 0.2500000 0.2500000
0.4983550 0.2722201 0.2722201
0.7433365 0.5264559 0.5264559
0.9924461 0.7835303 0.7835303
0.1873974 0.4983056 0.2718780
0.2722201 0.4983550 0.2722201
0.4991822 0.4991822 0.2891833
0.7434526 0.5608378 0.5284569
0.9924499 0.7847552 0.7835983
0.5250663 0.7433329 0.5263924
0.5264559 0.7433365 0.5264559
0.5608378 0.7434526 0.5284569
0.7467452 0.7467452 0.5756705
0.9925710 0.8158453 0.7857406
0.7834917 0.9924460 0.7835282
0.7835303 0.9924461 0.7835303
0.7847552 0.9924499 0.7835983
0.8158453 0.9925710 0.7857406
0.9963219 0.9963219 0.8335082
0.1862612 0.1862612 0.4982567
0.2718780 0.1873974 0.4983056
0.4991336 0.2334812 0.4991336
0.7434489 0.5271058 0.5607984
0.9924498 0.7835597 0.7847531
0.1873974 0.2718780 0.4983056
0.2722201 0.2722201 0.4983550
0.4991822 0.2891833 0.4991822
0.7434526 0.5284569 0.5608378
0.9924499 0.7835983 0.7847552
0.2334812 0.4991336 0.4991336
0.2891833 0.4991822 0.4991822
0.5000000 0.5000000 0.5000000
0.7435688 0.5620839 0.5620839
0.9924537 0.7848220 0.7848220
0.5271058 0.7434489 0.5607984
0.5284569 0.7434526 0.5608378
0.5620839 0.7435688 0.5620839
0.7468561 0.7468561 0.5949486
0.9925747 0.8158887 0.7869288
0.7835597 0.9924498 0.7847531
0.7835983 0.9924499 0.7847552
0.7848220 0.9924537 0.7848220
0.8158887 0.9925747 0.7869288
0.9963255 0.9963255 0.8341231
0.5250016 0.5250016 0.7433292
0.5263924 0.5250663 0.7433329
0.5607984 0.5271058 0.7434489
0.7467417 0.5749766 0.7467417
0.9925708 0.7857031 0.8158439
0.5250663 0.5263924 0.7433329
0.5264559 0.5264559 0.7433365
0.5608378 0.5284569 0.7434526
0.7467452 0.5756705 0.7467452
0.9925710 0.7857406 0.8158453
0.5271058 0.5607984 0.7434489
0.5284569 0.5608378 0.7434526
0.5620839 0.5620839 0.7435688
0.7468561 0.5949486 0.7468561
0.9925747 0.7869288 0.8158887
0.5749766 0.7467417 0.7467417
0.5756705 0.7467452 0.7467452
0.5949486 0.7468561 0.7468561
0.7500000 0.7500000 0.7500000
0.9926956 0.8172650 0.8172650
0.7857031 0.9925708 0.8158439
0.7857406 0.9925710 0.8158453
0.7869288 0.9925747 0.8158887
0.8172650 0.9926956 0.8172650
0.9964402 0.9964402 0.8514579
0.7834896 0.7834896 0.9924459
0.7835282 0.7834917 0.9924460
0.7847531 0.7835597 0.9924498
0.8158439 0.7857031 0.9925708
0.9963218 0.8334889 0.9963218
0.7834917 0.7835282 0.9924460
0.7835303 0.7835303 0.9924461
0.7847552 0.7835983 0.9924499
0.8158453 0.7857406 0.9925710
0.9963219 0.8335082 0.9963219
0.7835597 0.7847531 0.9924498
0.7835983 0.7847552 0.9924499
0.7848220 0.7848220 0.9924537
0.8158887 0.7869288 0.9925747
0.9963255 0.8341231 0.9963255
0.7857031 0.8158439 0.9925708
0.7857406 0.8158453 0.9925710
0.7869288 0.8158887 0.9925747
0.8172650 0.8172650 0.9926956
0.9964402 0.8514579 0.9964402
0.8334889 0.9963218 0.9963218
0.8335082 0.9963219 0.9963219
0.8341231 0.9963255 0.9963255
0.8514579 0.9964402 0.9964402
1.0000000 1.0000000 1.0000000
