RealBloom/ocio/LUTs/post_formation_compression_srgb.cube
TITLE "Moment Compression v1m= 1 sim=1 ITU-R BT.709 I-ESpherical Chroma Compression v1s=0.6 sis=0.3"
# Compress chroma spherically. Resolution 40
# At a radius of 1.0, the compression is 40.0%.
# Very high radii are compressed by 70.0%.
LUT_3D_SIZE 8
DOMAIN_MIN 0.000000 0.000000 0.000000
DOMAIN_MAX 0.897436 0.897436 0.897436
0.0000000 0.0000000 0.0000000
0.1282051 0.0000000 0.0000000
0.2564103 0.0000000 0.0000000
0.3846154 0.0000000 0.0000000
0.5128158 0.0002373 0.0002373
0.6405429 0.0588829 0.0588829
0.7635638 0.3636396 0.3636396
0.8764655 0.6256786 0.6256786
0.0000000 0.1282051 0.0000000
0.1282051 0.1282051 0.0000000
0.2564103 0.1282051 0.0000000
0.3846154 0.1282051 0.0000000
0.5128161 0.1282727 0.0002289
0.6405492 0.1498535 0.0587508
0.7635791 0.3718199 0.3636975
0.8764789 0.6263607 0.6257255
0.0000000 0.2564103 0.0000000
0.1282051 0.2564103 0.0000000
0.2564103 0.2564103 0.0000000
0.3846154 0.2564103 0.0000000
0.5128170 0.2564256 0.0002051
0.6405684 0.2631861 0.0583351
0.7636276 0.3944060 0.3638796
0.8765212 0.6284996 0.6258742
0.0000000 0.3846154 0.0000000
0.1282051 0.3846154 0.0000000
0.2564103 0.3846154 0.0000000
0.3846154 0.3846154 0.0000000
0.5128185 0.3846168 0.0001597
0.6406231 0.3863197 0.0570888
0.7637780 0.4455558 0.3644450
0.8766552 0.6350349 0.6263439
0.0002373 0.5128158 0.0002373
0.1282727 0.5128161 0.0002289
0.2564256 0.5128170 0.0002051
0.3846168 0.5128185 0.0001597
0.5128182 0.5128182 0.0004742
0.6407410 0.5130205 0.0550929
0.7642219 0.5319297 0.3661711
0.8770740 0.6535973 0.6278118
0.0588829 0.6405429 0.0588829
0.1498535 0.6405492 0.0587508
0.2631861 0.6405684 0.0583351
0.3863197 0.6406231 0.0570888
0.5130205 0.6407410 0.0550929
0.6407846 0.6407846 0.0971502
0.7653010 0.6436939 0.3728356
0.8783391 0.6980913 0.6322776
0.3636396 0.7635638 0.3636396
0.3718199 0.7635791 0.3636975
0.3944060 0.7636276 0.3638796
0.4455558 0.7637780 0.3644450
0.5319297 0.7642219 0.3661711
0.6436939 0.7653010 0.3728356
0.7664334 0.7664334 0.4384479
0.8816908 0.7790299 0.6457240
0.6256786 0.8764655 0.6256786
0.6263607 0.8764789 0.6257255
0.6284996 0.8765212 0.6258742
0.6350349 0.8766552 0.6263439
0.6535973 0.8770740 0.6278118
0.6980913 0.8783391 0.6322776
0.7790299 0.8816908 0.6457240
0.8874453 0.8874453 0.7024039
0.0000000 0.0000000 0.1282051
0.1282051 0.0000000 0.1282051
0.2564103 0.0000000 0.1282051
0.3846154 0.0000000 0.1282051
0.5128161 0.0002289 0.1282727
0.6405492 0.0587508 0.1498535
0.7635791 0.3636975 0.3718199
0.8764789 0.6257255 0.6263607
0.0000000 0.1282051 0.1282051
0.1282051 0.1282051 0.1282051
0.2564103 0.1282051 0.1282051
0.3846154 0.1282051 0.1282051
0.5128164 0.1282702 0.1282702
0.6405555 0.1497955 0.1497955
0.7635945 0.3718734 0.3718734
0.8764922 0.6264073 0.6264073
0.0000000 0.2564103 0.1282051
0.1282051 0.2564103 0.1282051
0.2564103 0.2564103 0.1282051
0.3846154 0.2564103 0.1282051
0.5128173 0.2564249 0.1282630
0.6405746 0.2631656 0.1496130
0.7636430 0.3944492 0.3720420
0.8765346 0.6285453 0.6265551
0.0000000 0.3846154 0.1282051
0.1282051 0.3846154 0.1282051
0.2564103 0.3846154 0.1282051
0.3846154 0.3846154 0.1282051
0.5128187 0.3846168 0.1282490
0.6406293 0.3863137 0.1490650
0.7637935 0.4455823 0.3725652
0.8766686 0.6350778 0.6270217
0.0002289 0.5128161 0.1282727
0.1282702 0.5128164 0.1282702
0.2564249 0.5128173 0.1282630
0.3846168 0.5128187 0.1282490
0.5128185 0.5128185 0.1283352
0.6407470 0.5130207 0.1481576
0.7642377 0.5319417 0.3741602
0.8770875 0.6536332 0.6284801
0.0587508 0.6405492 0.1498535
0.1497955 0.6405555 0.1497955
0.2631656 0.6405746 0.1496130
0.3863137 0.6406293 0.1490650
0.5130207 0.6407470 0.1481576
0.6407908 0.6407908 0.1678619
0.7653174 0.6437014 0.3803144
0.8783528 0.6981150 0.6329171
0.3636975 0.7635791 0.3718199
0.3718734 0.7635945 0.3718734
0.3944492 0.7636430 0.3720420
0.4455823 0.7637935 0.3725652
0.5319417 0.7642377 0.3741602
0.6437014 0.7653174 0.3803144
0.7664484 0.7664484 0.4424431
0.8817050 0.7790426 0.6462782
0.6257255 0.8764789 0.6263607
0.6264073 0.8764922 0.6264073
0.6285453 0.8765346 0.6265551
0.6350778 0.8766686 0.6270217
0.6536332 0.8770875 0.6284801
0.6981150 0.8783528 0.6329171
0.7790426 0.8817050 0.6462782
0.8874574 0.8874574 0.7027056
0.0000000 0.0000000 0.2564103
0.1282051 0.0000000 0.2564103
0.2564103 0.0000000 0.2564103
0.3846154 0.0000000 0.2564103
0.5128170 0.0002051 0.2564256
0.6405684 0.0583351 0.2631861
0.7636276 0.3638796 0.3944060
0.8765212 0.6258742 0.6284996
0.0000000 0.1282051 0.2564103
0.1282051 0.1282051 0.2564103
0.2564103 0.1282051 0.2564103
0.3846154 0.1282051 0.2564103
0.5128173 0.1282630 0.2564249
0.6405746 0.1496130 0.2631656
0.7636430 0.3720420 0.3944492
0.8765346 0.6265551 0.6285453
0.0000000 0.2564103 0.2564103
0.1282051 0.2564103 0.2564103
0.2564103 0.2564103 0.2564103
0.3846154 0.2564103 0.2564103
0.5128180 0.2564230 0.2564230
0.6405938 0.2631007 0.2631007
0.7636915 0.3945853 0.3945853
0.8765770 0.6286901 0.6286901
0.0000000 0.3846154 0.2564103
0.1282051 0.3846154 0.2564103
0.2564103 0.3846154 0.2564103
0.3846154 0.3846154 0.2564103
0.5128193 0.3846166 0.2564191
0.6406482 0.3862944 0.2629027
0.7638423 0.4456657 0.3950069
0.8767110 0.6352138 0.6291473
0.0002051 0.5128170 0.2564256
0.1282630 0.5128173 0.2564249
0.2564230 0.5128180 0.2564230
0.3846166 0.5128193 0.2564191
0.5128192 0.5128192 0.2564357
0.6407654 0.5130206 0.2625370
0.7642873 0.5319791 0.3962860
0.8771301 0.6537471 0.6305762
0.0583351 0.6405684 0.2631861
0.1496130 0.6405746 0.2631656
0.2631007 0.6405938 0.2631007
0.3862944 0.6406482 0.2629027
0.5130206 0.6407654 0.2625370
0.6408099 0.6408099 0.2694107
0.7653692 0.6437249 0.4011970
0.8783962 0.6981899 0.6349240
0.3638796 0.7636276 0.3944060
0.3720420 0.7636430 0.3944492
0.3945853 0.7636915 0.3945853
0.4456657 0.7638423 0.3950069
0.5319791 0.7642873 0.3962860
0.6437249 0.7653692 0.4011970
0.7664957 0.7664957 0.4542585
0.8817501 0.7790831 0.6480201
0.6258742 0.8765212 0.6284996
0.6265551 0.8765346 0.6285453
0.6286901 0.8765770 0.6286901
0.6352138 0.8767110 0.6291473
0.6537471 0.8771301 0.6305762
0.6981899 0.8783962 0.6349240
0.7790831 0.8817501 0.6480201
0.8874958 0.8874958 0.7036581
0.0000000 0.0000000 0.3846154
0.1282051 0.0000000 0.3846154
0.2564103 0.0000000 0.3846154
0.3846154 0.0000000 0.3846154
0.5128185 0.0001597 0.3846168
0.6406231 0.0570888 0.3863197
0.7637780 0.3644450 0.4455558
0.8766552 0.6263439 0.6350349
0.0000000 0.1282051 0.3846154
0.1282051 0.1282051 0.3846154
0.2564103 0.1282051 0.3846154
0.3846154 0.1282051 0.3846154
0.5128187 0.1282490 0.3846168
0.6406293 0.1490650 0.3863137
0.7637935 0.3725652 0.4455823
0.8766686 0.6270217 0.6350778
0.0000000 0.2564103 0.3846154
0.1282051 0.2564103 0.3846154
0.2564103 0.2564103 0.3846154
0.3846154 0.2564103 0.3846154
0.5128193 0.2564191 0.3846166
0.6406482 0.2629027 0.3862944
0.7638423 0.3950069 0.4456657
0.8767110 0.6291473 0.6352138
0.0000000 0.3846154 0.3846154
0.1282051 0.3846154 0.3846154
0.2564103 0.3846154 0.3846154
0.3846154 0.3846154 0.3846154
0.5128202 0.3846160 0.3846160
0.6407020 0.3862322 0.3862322
0.7639940 0.4459227 0.4459227
0.8768452 0.6356433 0.6356433
0.0001597 0.5128185 0.3846168
0.1282490 0.5128187 0.3846168
0.2564191 0.5128193 0.3846166
0.3846160 0.5128202 0.3846160
0.5128203 0.5128203 0.3846165
0.6408172 0.5130160 0.3860834
0.7644417 0.5320920 0.4466866
0.8772650 0.6541068 0.6369858
0.0570888 0.6406231 0.3863197
0.1490650 0.6406293 0.3863137
0.2629027 0.6406482 0.3862944
0.3862322 0.6407020 0.3862322
0.5130160 0.6408172 0.3860834
0.6408639 0.6408639 0.3878258
0.7655303 0.6437945 0.4495240
0.8785332 0.6984262 0.6410709
0.3644450 0.7637780 0.4455558
0.3725652 0.7637935 0.4455823
0.3950069 0.7638423 0.4456657
0.4459227 0.7639940 0.4459227
0.5320920 0.7644417 0.4466866
0.6437945 0.7655303 0.4495240
0.7666433 0.7666433 0.4851848
0.8818928 0.7792103 0.6533823
0.6263439 0.8766552 0.6350349
0.6270217 0.8766686 0.6350778
0.6291473 0.8767110 0.6352138
0.6356433 0.8768452 0.6356433
0.6541068 0.8772650 0.6369858
0.6984262 0.8785332 0.6410709
0.7792103 0.8818928 0.6533823
0.8876174 0.8876174 0.7066318
0.0002373 0.0002373 0.5128158
0.1282727 0.0002289 0.5128161
0.2564256 0.0002051 0.5128170
0.3846168 0.0001597 0.5128185
0.5128182 0.0004742 0.5128182
0.6407410 0.0550929 0.5130205
0.7642219 0.3661711 0.5319297
0.8770740 0.6278118 0.6535973
0.0002289 0.1282727 0.5128161
0.1282702 0.1282702 0.5128164
0.2564249 0.1282630 0.5128173
0.3846168 0.1282490 0.5128187
0.5128185 0.1283352 0.5128185
0.6407470 0.1481576 0.5130207
0.7642377 0.3741602 0.5319417
0.8770875 0.6284801 0.6536332
0.0002051 0.2564256 0.5128170
0.1282630 0.2564249 0.5128173
0.2564230 0.2564230 0.5128180
0.3846166 0.2564191 0.5128193
0.5128192 0.2564357 0.5128192
0.6407654 0.2625370 0.5130206
0.7642873 0.3962860 0.5319791
0.8771301 0.6305762 0.6537471
0.0001597 0.3846168 0.5128185
0.1282490 0.3846168 0.5128187
0.2564191 0.3846166 0.5128193
0.3846160 0.3846160 0.5128202
0.5128203 0.3846165 0.5128203
0.6408172 0.3860834 0.5130160
0.7644417 0.4466866 0.5320920
0.8772650 0.6369858 0.6541068
0.0004742 0.5128182 0.5128182
0.1283352 0.5128185 0.5128185
0.2564357 0.5128192 0.5128192
0.3846165 0.5128203 0.5128203
0.5128205 0.5128205 0.5128205
0.6409248 0.5129804 0.5129804
0.7648978 0.5324026 0.5324026
0.8776869 0.6552308 0.6552308
0.0550929 0.6407410 0.5130205
0.1481576 0.6407470 0.5130207
0.2625370 0.6407654 0.5130206
0.3860834 0.6408172 0.5130160
0.5129804 0.6409248 0.5129804
0.6409752 0.6409752 0.5131400
0.7660090 0.6439694 0.5333373
0.8789620 0.6991627 0.6586477
0.3661711 0.7642219 0.5319297
0.3741602 0.7642377 0.5319417
0.3962860 0.7642873 0.5319791
0.4466866 0.7644417 0.5320920
0.5324026 0.7648978 0.5324026
0.6439694 0.7660090 0.5333373
0.7670854 0.7670854 0.5490421
0.8823405 0.7796034 0.6689234
0.6278118 0.8770740 0.6535973
0.6284801 0.8770875 0.6536332
0.6305762 0.8771301 0.6537471
0.6369858 0.8772650 0.6541068
0.6552308 0.8776869 0.6552308
0.6991627 0.8789620 0.6586477
0.7796034 0.8823405 0.6689234
0.8880001 0.8880001 0.7156007
0.0588829 0.0588829 0.6405429
0.1498535 0.0587508 0.6405492
0.2631861 0.0583351 0.6405684
0.3863197 0.0570888 0.6406231
0.5130205 0.0550929 0.6407410
0.6407846 0.0971502 0.6407846
0.7653010 0.3728356 0.6436939
0.8783391 0.6322776 0.6980913
0.0587508 0.1498535 0.6405492
0.1497955 0.1497955 0.6405555
0.2631656 0.1496130 0.6405746
0.3863137 0.1490650 0.6406293
0.5130207 0.1481576 0.6407470
0.6407908 0.1678619 0.6407908
0.7653174 0.3803144 0.6437014
0.8783528 0.6329171 0.6981150
0.0583351 0.2631861 0.6405684
0.1496130 0.2631656 0.6405746
0.2631007 0.2631007 0.6405938
0.3862944 0.2629027 0.6406482
0.5130206 0.2625370 0.6407654
0.6408099 0.2694107 0.6408099
0.7653692 0.4011970 0.6437249
0.8783962 0.6349240 0.6981899
0.0570888 0.3863197 0.6406231
0.1490650 0.3863137 0.6406293
0.2629027 0.3862944 0.6406482
0.3862322 0.3862322 0.6407020
0.5130160 0.3860834 0.6408172
0.6408639 0.3878258 0.6408639
0.7655303 0.4495240 0.6437945
0.8785332 0.6410709 0.6984262
0.0550929 0.5130205 0.6407410
0.1481576 0.5130207 0.6407470
0.2625370 0.5130206 0.6407654
0.3860834 0.5130160 0.6408172
0.5129804 0.5129804 0.6409248
0.6409752 0.5131400 0.6409752
0.7660090 0.5333373 0.6439694
0.8789620 0.6586477 0.6991627
0.0971502 0.6407846 0.6407846
0.1678619 0.6407908 0.6407908
0.2694107 0.6408099 0.6408099
0.3878258 0.6408639 0.6408639
0.5131400 0.6409752 0.6409752
0.6410256 0.6410256 0.6410256
0.7671906 0.6441890 0.6441890
0.8802603 0.7013799 0.7013799
0.3728356 0.7653010 0.6436939
0.3803144 0.7653174 0.6437014
0.4011970 0.7653692 0.6437249
0.4495240 0.7655303 0.6437945
0.5333373 0.7660090 0.6439694
0.6441890 0.7671906 0.6441890
0.7682154 0.7682154 0.6472648
0.8837072 0.7807439 0.7078356
0.6322776 0.8783391 0.6980913
0.6329171 0.8783528 0.6981150
0.6349240 0.8783962 0.6981899
0.6410709 0.8785332 0.6984262
0.6586477 0.8789620 0.6991627
0.7013799 0.8802603 0.7013799
0.7807439 0.8837072 0.7078356
0.8891800 0.8891800 0.7402547
0.3636396 0.3636396 0.7635638
0.3718199 0.3636975 0.7635791
0.3944060 0.3638796 0.7636276
0.4455558 0.3644450 0.7637780
0.5319297 0.3661711 0.7642219
0.6436939 0.3728356 0.7653010
0.7664334 0.4384479 0.7664334
0.8816908 0.6457240 0.7790299
0.3636975 0.3718199 0.7635791
0.3718734 0.3718734 0.7635945
0.3944492 0.3720420 0.7636430
0.4455823 0.3725652 0.7637935
0.5319417 0.3741602 0.7642377
0.6437014 0.3803144 0.7653174
0.7664484 0.4424431 0.7664484
0.8817050 0.6462782 0.7790426
0.3638796 0.3944060 0.7636276
0.3720420 0.3944492 0.7636430
0.3945853 0.3945853 0.7636915
0.4456657 0.3950069 0.7638423
0.5319791 0.3962860 0.7642873
0.6437249 0.4011970 0.7653692
0.7664957 0.4542585 0.7664957
0.8817501 0.6480201 0.7790831
0.3644450 0.4455558 0.7637780
0.3725652 0.4455823 0.7637935
0.3950069 0.4456657 0.7638423
0.4459227 0.4459227 0.7639940
0.5320920 0.4466866 0.7644417
0.6437945 0.4495240 0.7655303
0.7666433 0.4851848 0.7666433
0.8818928 0.6533823 0.7792103
0.3661711 0.5319297 0.7642219
0.3741602 0.5319417 0.7642377
0.3962860 0.5319791 0.7642873
0.4466866 0.5320920 0.7644417
0.5324026 0.5324026 0.7648978
0.6439694 0.5333373 0.7660090
0.7670854 0.5490421 0.7670854
0.8823405 0.6689234 0.7796034
0.3728356 0.6436939 0.7653010
0.3803144 0.6437014 0.7653174
0.4011970 0.6437249 0.7653692
0.4495240 0.6437945 0.7655303
0.5333373 0.6439694 0.7660090
0.6441890 0.6441890 0.7671906
0.7682154 0.6472648 0.7682154
0.8837072 0.7078356 0.7807439
0.4384479 0.7664334 0.7664334
0.4424431 0.7664484 0.7664484
0.4542585 0.7664957 0.7664957
0.4851848 0.7666433 0.7666433
0.5490421 0.7670854 0.7670854
0.6472648 0.7682154 0.7682154
0.7692308 0.7692308 0.7692308
0.8874223 0.7834756 0.7834756
0.6457240 0.8816908 0.7790299
0.6462782 0.8817050 0.7790426
0.6480201 0.8817501 0.7790831
0.6533823 0.8818928 0.7792103
0.6689234 0.8823405 0.7796034
0.7078356 0.8837072 0.7807439
0.7834756 0.8874223 0.7834756
0.8925420 0.8925420 0.7960983
0.6256786 0.6256786 0.8764655
0.6263607 0.6257255 0.8764789
0.6284996 0.6258742 0.8765212
0.6350349 0.6263439 0.8766552
0.6535973 0.6278118 0.8770740
0.6980913 0.6322776 0.8783391
0.7790299 0.6457240 0.8816908
0.8874453 0.7024039 0.8874453
0.6257255 0.6263607 0.8764789
0.6264073 0.6264073 0.8764922
0.6285453 0.6265551 0.8765346
0.6350778 0.6270217 0.8766686
0.6536332 0.6284801 0.8770875
0.6981150 0.6329171 0.8783528
0.7790426 0.6462782 0.8817050
0.8874574 0.7027056 0.8874574
0.6258742 0.6284996 0.8765212
0.6265551 0.6285453 0.8765346
0.6286901 0.6286901 0.8765770
0.6352138 0.6291473 0.8767110
0.6537471 0.6305762 0.8771301
0.6981899 0.6349240 0.8783962
0.7790831 0.6480201 0.8817501
0.8874958 0.7036581 0.8874958
0.6263439 0.6350349 0.8766552
0.6270217 0.6350778 0.8766686
0.6291473 0.6352138 0.8767110
0.6356433 0.6356433 0.8768452
0.6541068 0.6369858 0.8772650
0.6984262 0.6410709 0.8785332
0.7792103 0.6533823 0.8818928
0.8876174 0.7066318 0.8876174
0.6278118 0.6535973 0.8770740
0.6284801 0.6536332 0.8770875
0.6305762 0.6537471 0.8771301
0.6369858 0.6541068 0.8772650
0.6552308 0.6552308 0.8776869
0.6991627 0.6586477 0.8789620
0.7796034 0.6689234 0.8823405
0.8880001 0.7156007 0.8880001
0.6322776 0.6980913 0.8783391
0.6329171 0.6981150 0.8783528
0.6349240 0.6981899 0.8783962
0.6410709 0.6984262 0.8785332
0.6586477 0.6991627 0.8789620
0.7013799 0.7013799 0.8802603
0.7807439 0.7078356 0.8837072
0.8891800 0.7402547 0.8891800
0.6457240 0.7790299 0.8816908
0.6462782 0.7790426 0.8817050
0.6480201 0.7790831 0.8817501
0.6533823 0.7792103 0.8818928
0.6689234 0.7796034 0.8823405
0.7078356 0.7807439 0.8837072
0.7834756 0.7834756 0.8874223
0.8925420 0.7960983 0.8925420
0.7024039 0.8874453 0.8874453
0.7027056 0.8874574 0.8874574
0.7036581 0.8874958 0.8874958
0.7066318 0.8876174 0.8876174
0.7156007 0.8880001 0.8880001
0.7402547 0.8891800 0.8891800
0.7960983 0.8925420 0.8925420
0.8974359 0.8974359 0.8974359
