RealBloom/ocio/LUTs/post_formation_compression_srgb.cube
TITLE "Moment Compression v1m= 1 sim=1 ITU-R BT.709 I-ESpherical Chroma Compression v1s=0.6 sis=0.3"
# Compress chroma spherically. Resolution 40
# At a radius of 1.0, the compression is 40.0%.
# Very high radii are compressed by 70.0%.
LUT_3D_SIZE 40
0.0000000 0.0000000 0.0000000
0.0256410 0.0000000 0.0000000
0.0512821 0.0000000 0.0000000
0.0769231 0.0000000 0.0000000
0.1025641 0.0000000 0.0000000
0.1282051 0.0000000 0.0000000
0.1538462 0.0000000 0.0000000
0.1794872 0.0000000 0.0000000
0.2051282 0.0000000 0.0000000
0.2307692 0.0000000 0.0000000
0.2564103 0.0000000 0.0000000
0.2820513 0.0000000 0.0000000
0.3076923 0.0000000 0.0000000
0.3333333 0.0000000 0.0000000
0.3589744 0.0000000 0.0000000
0.3846154 0.0000000 0.0000000
0.4102564 0.0000001 0.0000001
0.4358974 0.0000012 0.0000012
0.4615382 0.0000085 0.0000085
0.4871783 0.0000494 0.0000494
0.5128158 0.0002373 0.0002373
0.5384464 0.0009676 0.0009676
0.5640598 0.0033974 0.0033974
0.5896371 0.0103219 0.0103219
0.6151468 0.0268782 0.0268782
0.6405429 0.0588829 0.0588829
0.6657660 0.1078354 0.1078354
0.6907467 0.1687678 0.1687678
0.7154138 0.2346403 0.2346403
0.7397025 0.3004404 0.3004404
0.7635638 0.3636396 0.3636396
0.7869710 0.4232574 0.4232574
0.8099246 0.4790800 0.4790800
0.8324525 0.5312366 0.5312366
0.8546080 0.5799968 0.5799968
0.8764655 0.6256786 0.6256786
0.8981139 0.6686064 0.6686064
0.9196497 0.7090922 0.7090922
0.9411697 0.7474275 0.7474275
0.9627653 0.7838797 0.7838797
0.0000000 0.0256410 0.0000000
0.0256410 0.0256410 0.0000000
0.0512821 0.0256410 0.0000000
0.0769231 0.0256410 0.0000000
0.1025641 0.0256410 0.0000000
0.1282051 0.0256410 0.0000000
0.1538462 0.0256410 0.0000000
0.1794872 0.0256410 0.0000000
0.2051282 0.0256410 0.0000000
0.2307692 0.0256410 0.0000000
0.2564103 0.0256410 0.0000000
0.2820513 0.0256410 0.0000000
0.3076923 0.0256410 0.0000000
0.3333333 0.0256410 0.0000000
0.3589744 0.0256410 0.0000000
0.3846154 0.0256410 0.0000000
0.4102564 0.0256411 0.0000001
0.4358974 0.0256419 0.0000012
0.4615382 0.0256476 0.0000084
0.4871783 0.0256796 0.0000491
0.5128159 0.0258272 0.0002363
0.5384464 0.0264029 0.0009649
0.5640600 0.0283283 0.0033915
0.5896374 0.0338715 0.0103113
0.6151473 0.0474090 0.0268631
0.6405437 0.0745630 0.0588671
0.6657670 0.1181164 0.1078241
0.6907480 0.1747696 0.1687631
0.7154153 0.2379554 0.2346414
0.7397042 0.3022555 0.3004454
0.7635656 0.3646495 0.3636466
0.7869729 0.4238343 0.4232650
0.8099265 0.4794194 0.4790877
0.8324543 0.5314421 0.5312437
0.8546097 0.5801248 0.5800032
0.8764671 0.6257603 0.6256842
0.8981154 0.6686598 0.6686112
0.9196510 0.7091280 0.7090963
0.9411709 0.7474519 0.7474309
0.9627662 0.7838967 0.7838826
0.0000000 0.0512821 0.0000000
0.0256410 0.0512821 0.0000000
0.0512821 0.0512821 0.0000000
0.0769231 0.0512821 0.0000000
0.1025641 0.0512821 0.0000000
0.1282051 0.0512821 0.0000000
0.1538462 0.0512821 0.0000000
0.1794872 0.0512821 0.0000000
0.2051282 0.0512821 0.0000000
0.2307692 0.0512821 0.0000000
0.2564103 0.0512821 0.0000000
0.2820513 0.0512821 0.0000000
0.3076923 0.0512821 0.0000000
0.3333333 0.0512821 0.0000000
0.3589744 0.0512821 0.0000000
0.3846154 0.0512821 0.0000000
0.4102564 0.0512821 0.0000001
0.4358974 0.0512828 0.0000012
0.4615382 0.0512872 0.0000083
0.4871783 0.0513120 0.0000487
0.5128159 0.0514276 0.0002350
0.5384466 0.0518804 0.0009615
0.5640602 0.0534026 0.0033841
0.5896378 0.0578241 0.0102979
0.6151479 0.0688198 0.0268441
0.6405446 0.0916082 0.0588472
0.6657683 0.1298457 0.1078097
0.6907496 0.1818970 0.1687572
0.7154172 0.2419960 0.2346428
0.7397064 0.3045010 0.3004516
0.7635679 0.3659090 0.3636553
0.7869753 0.4245569 0.4232747
0.8099289 0.4798455 0.4790972
0.8324566 0.5317005 0.5312527
0.8546119 0.5802858 0.5800113
0.8764691 0.6258632 0.6256912
0.8981172 0.6687272 0.6686173
0.9196526 0.7091730 0.7091014
0.9411723 0.7474826 0.7474352
0.9627675 0.7839181 0.7838861
0.0000000 0.0769231 0.0000000
0.0256410 0.0769231 0.0000000
0.0512821 0.0769231 0.0000000
0.0769231 0.0769231 0.0000000
0.1025641 0.0769231 0.0000000
0.1282051 0.0769231 0.0000000
0.1538462 0.0769231 0.0000000
0.1794872 0.0769231 0.0000000
0.2051282 0.0769231 0.0000000
0.2307692 0.0769231 0.0000000
0.2564103 0.0769231 0.0000000
0.2820513 0.0769231 0.0000000
0.3076923 0.0769231 0.0000000
0.3333333 0.0769231 0.0000000
0.3589744 0.0769231 0.0000000
0.3846154 0.0769231 0.0000000
0.4102564 0.0769231 0.0000001
0.4358974 0.0769236 0.0000011
0.4615382 0.0769270 0.0000082
0.4871783 0.0769463 0.0000481
0.5128160 0.0770364 0.0002334
0.5384467 0.0773915 0.0009573
0.5640605 0.0785919 0.0033748
0.5896383 0.0821068 0.0102812
0.6151487 0.0909849 0.0268202
0.6405458 0.1099190 0.0588221
0.6657699 0.1430520 0.1077917
0.6907516 0.1902709 0.1687498
0.7154196 0.2468861 0.2346446
0.7397091 0.3072671 0.3004594
0.7635708 0.3674758 0.3636663
0.7869783 0.4254607 0.4232868
0.8099319 0.4803800 0.4791093
0.8324595 0.5320253 0.5312640
0.8546146 0.5804883 0.5800214
0.8764717 0.6259927 0.6257001
0.8981195 0.6688120 0.6686249
0.9196546 0.7092297 0.7091079
0.9411741 0.7475214 0.7474406
0.9627690 0.7839450 0.7838906
0.0000000 0.1025641 0.0000000
0.0256410 0.1025641 0.0000000
0.0512821 0.1025641 0.0000000
0.0769231 0.1025641 0.0000000
0.1025641 0.1025641 0.0000000
0.1282051 0.1025641 0.0000000
0.1538462 0.1025641 0.0000000
0.1794872 0.1025641 0.0000000
0.2051282 0.1025641 0.0000000
0.2307692 0.1025641 0.0000000
0.2564103 0.1025641 0.0000000
0.2820513 0.1025641 0.0000000
0.3076923 0.1025641 0.0000000
0.3333333 0.1025641 0.0000000
0.3589744 0.1025641 0.0000000
0.3846154 0.1025641 0.0000000
0.4102564 0.1025641 0.0000001
0.4358974 0.1025645 0.0000011
0.4615382 0.1025671 0.0000080
0.4871783 0.1025819 0.0000475
0.5128161 0.1026519 0.0002314
0.5384469 0.1029295 0.0009520
0.5640608 0.1038733 0.0033632
0.5896389 0.1066580 0.0102601
0.6151497 0.1137879 0.0267901
0.6405473 0.1293769 0.0587906
0.6657719 0.1577254 0.1077689
0.6907542 0.1999947 0.1687404
0.7154227 0.2527558 0.2346469
0.7397125 0.3106569 0.3004692
0.7635745 0.3694190 0.3636801
0.7869821 0.4265891 0.4233021
0.8099357 0.4810499 0.4791245
0.8324632 0.5324331 0.5312782
0.8546181 0.5807430 0.5800342
0.8764748 0.6261557 0.6257114
0.8981224 0.6689187 0.6686345
0.9196572 0.7093012 0.7091161
0.9411763 0.7475701 0.7474475
0.9627710 0.7839789 0.7838963
0.0000000 0.1282051 0.0000000
0.0256410 0.1282051 0.0000000
0.0512821 0.1282051 0.0000000
0.0769231 0.1282051 0.0000000
0.1025641 0.1282051 0.0000000
0.1282051 0.1282051 0.0000000
0.1538462 0.1282051 0.0000000
0.1794872 0.1282051 0.0000000
0.2051282 0.1282051 0.0000000
0.2307692 0.1282051 0.0000000
0.2564103 0.1282051 0.0000000
0.2820513 0.1282051 0.0000000
0.3076923 0.1282051 0.0000000
0.3333333 0.1282051 0.0000000
0.3589744 0.1282051 0.0000000
0.3846154 0.1282051 0.0000000
0.4102564 0.1282052 0.0000001
0.4358974 0.1282054 0.0000010
0.4615382 0.1282074 0.0000078
0.4871784 0.1282187 0.0000467
0.5128161 0.1282727 0.0002289
0.5384471 0.1284887 0.0009454
0.5640612 0.1292282 0.0033486
0.5896397 0.1314268 0.0102336
0.6151510 0.1371241 0.0267523
0.6405492 0.1498535 0.0587508
0.6657744 0.1738180 0.1077403
0.6907574 0.2111458 0.1687286
0.7154265 0.2597353 0.2346496
0.7397168 0.3147857 0.3004815
0.7635791 0.3718199 0.3636975
0.7869869 0.4279947 0.4233214
0.8099405 0.4818882 0.4791437
0.8324678 0.5329448 0.5312961
0.8546225 0.5810630 0.5800503
0.8764789 0.6263607 0.6257255
0.8981260 0.6690531 0.6686467
0.9196604 0.7093911 0.7091264
0.9411792 0.7476315 0.7474561
0.9627734 0.7840216 0.7839034
0.0000000 0.1538462 0.0000000
0.0256410 0.1538462 0.0000000
0.0512821 0.1538462 0.0000000
0.0769231 0.1538462 0.0000000
0.1025641 0.1538462 0.0000000
0.1282051 0.1538462 0.0000000
0.1538462 0.1538462 0.0000000
0.1794872 0.1538462 0.0000000
0.2051282 0.1538462 0.0000000
0.2307692 0.1538462 0.0000000
0.2564103 0.1538462 0.0000000
0.2820513 0.1538462 0.0000000
0.3076923 0.1538462 0.0000000
0.3333333 0.1538462 0.0000000
0.3589744 0.1538462 0.0000000
0.3846154 0.1538462 0.0000000
0.4102564 0.1538462 0.0000001
0.4358974 0.1538464 0.0000010
0.4615382 0.1538478 0.0000076
0.4871784 0.1538564 0.0000458
0.5128163 0.1538978 0.0002258
0.5384473 0.1540649 0.0009372
0.5640618 0.1546419 0.0033304
0.5896407 0.1563710 0.0102004
0.6151526 0.1609017 0.0267048
0.6405515 0.1712180 0.0587009
0.6657776 0.1912495 0.1077041
0.6907614 0.2237676 0.1687137
0.7154313 0.2679472 0.2346531
0.7397222 0.3197784 0.3004970
0.7635849 0.3747730 0.3637193
0.7869929 0.4297408 0.4233456
0.8099465 0.4829355 0.4791678
0.8324736 0.5335861 0.5313187
0.8546280 0.5814649 0.5800707
0.8764839 0.6266185 0.6257433
0.8981306 0.6692221 0.6686620
0.9196645 0.7095043 0.7091393
0.9411828 0.7477088 0.7474669
0.9627765 0.7840754 0.7839124
0.0000000 0.1794872 0.0000000
0.0256410 0.1794872 0.0000000
0.0512821 0.1794872 0.0000000
0.0769231 0.1794872 0.0000000
0.1025641 0.1794872 0.0000000
0.1282051 0.1794872 0.0000000
0.1538462 0.1794872 0.0000000
0.1794872 0.1794872 0.0000000
0.2051282 0.1794872 0.0000000
0.2307692 0.1794872 0.0000000
0.2564103 0.1794872 0.0000000
0.2820513 0.1794872 0.0000000
0.3076923 0.1794872 0.0000000
0.3333333 0.1794872 0.0000000
0.3589744 0.1794872 0.0000000
0.3846154 0.1794872 0.0000000
0.4102564 0.1794872 0.0000001
0.4358974 0.1794873 0.0000009
0.4615383 0.1794884 0.0000073
0.4871785 0.1794948 0.0000446
0.5128164 0.1795262 0.0002221
0.5384477 0.1796547 0.0009270
0.5640625 0.1801025 0.0033077
0.5896419 0.1814565 0.0101589
0.6151546 0.1850420 0.0266451
0.6405545 0.1933446 0.0586380
0.6657816 0.2099138 0.1076586
0.6907665 0.2378657 0.1686948
0.7154373 0.2774980 0.2346574
0.7397290 0.3257657 0.3005165
0.7635923 0.3783855 0.3637469
0.7870005 0.4319026 0.4233761
0.8099540 0.4842413 0.4791981
0.8324809 0.5343891 0.5313471
0.8546349 0.5819693 0.5800962
0.8764903 0.6269424 0.6257657
0.8981364 0.6694347 0.6686812
0.9196697 0.7096468 0.7091556
0.9411873 0.7478062 0.7474806
0.9627804 0.7841431 0.7839238
0.0000000 0.2051282 0.0000000
0.0256410 0.2051282 0.0000000
0.0512821 0.2051282 0.0000000
0.0769231 0.2051282 0.0000000
0.1025641 0.2051282 0.0000000
0.1282051 0.2051282 0.0000000
0.1538462 0.2051282 0.0000000
0.1794872 0.2051282 0.0000000
0.2051282 0.2051282 0.0000000
0.2307692 0.2051282 0.0000000
0.2564103 0.2051282 0.0000000
0.2820513 0.2051282 0.0000000
0.3076923 0.2051282 0.0000000
0.3333333 0.2051282 0.0000000
0.3589744 0.2051282 0.0000000
0.3846154 0.2051282 0.0000000
0.4102564 0.2051282 0.0000001
0.4358974 0.2051283 0.0000009
0.4615383 0.2051290 0.0000070
0.4871785 0.2051337 0.0000432
0.5128166 0.2051573 0.0002174
0.5384481 0.2052552 0.0009145
0.5640633 0.2056006 0.0032794
0.5896434 0.2066553 0.0101069
0.6151571 0.2094784 0.0265703
0.6405582 0.2161161 0.0585589
0.6657866 0.2296889 0.1076013
0.6907729 0.2534071 0.1686710
0.7154449 0.2884687 0.2346627
0.7397375 0.3328774 0.3005410
0.7636015 0.3827762 0.3637815
0.7870100 0.4345680 0.4234145
0.8099635 0.4858650 0.4792363
0.8324902 0.5353926 0.5313828
0.8546436 0.5826016 0.5801284
0.8764984 0.6273492 0.6257939
0.8981437 0.6697020 0.6687055
0.9196761 0.7098260 0.7091762
0.9411929 0.7479287 0.7474978
0.9627853 0.7842283 0.7839380
0.0000000 0.2307692 0.0000000
0.0256410 0.2307692 0.0000000
0.0512821 0.2307692 0.0000000
0.0769231 0.2307692 0.0000000
0.1025641 0.2307692 0.0000000
0.1282051 0.2307692 0.0000000
0.1538462 0.2307692 0.0000000
0.1794872 0.2307692 0.0000000
0.2051282 0.2307692 0.0000000
0.2307692 0.2307692 0.0000000
0.2564103 0.2307692 0.0000000
0.2820513 0.2307692 0.0000000
0.3076923 0.2307692 0.0000000
0.3333333 0.2307692 0.0000000
0.3589744 0.2307692 0.0000000
0.3846154 0.2307692 0.0000000
0.4102564 0.2307692 0.0000001
0.4358974 0.2307693 0.0000008
0.4615383 0.2307698 0.0000066
0.4871786 0.2307732 0.0000415
0.5128167 0.2307906 0.0002118
0.5384485 0.2308643 0.0008990
0.5640643 0.2311285 0.0032445
0.5896453 0.2319449 0.0100422
0.6151601 0.2341552 0.0264767
0.6405627 0.2394274 0.0584596
0.6657929 0.2504448 0.1075290
0.6907808 0.2703238 0.1686409
0.7154544 0.3009077 0.2346693
0.7397483 0.3412350 0.3005717
0.7636130 0.3880726 0.3638249
0.7870220 0.4378380 0.4234628
0.8099755 0.4878778 0.4792844
0.8325018 0.5366443 0.5314279
0.8546545 0.5833932 0.5801690
0.8765085 0.6278597 0.6258294
0.8981528 0.6700379 0.6687360
0.9196843 0.7100515 0.7092020
0.9412001 0.7480829 0.7475195
0.9627915 0.7843357 0.7839560
0.0000000 0.2564103 0.0000000
0.0256410 0.2564103 0.0000000
0.0512821 0.2564103 0.0000000
0.0769231 0.2564103 0.0000000
0.1025641 0.2564103 0.0000000
0.1282051 0.2564103 0.0000000
0.1538462 0.2564103 0.0000000
0.1794872 0.2564103 0.0000000
0.2051282 0.2564103 0.0000000
0.2307692 0.2564103 0.0000000
0.2564103 0.2564103 0.0000000
0.2820513 0.2564103 0.0000000
0.3076923 0.2564103 0.0000000
0.3333333 0.2564103 0.0000000
0.3589744 0.2564103 0.0000000
0.3846154 0.2564103 0.0000000
0.4102564 0.2564103 0.0000001
0.4358974 0.2564103 0.0000007
0.4615383 0.2564106 0.0000061
0.4871787 0.2564130 0.0000396
0.5128170 0.2564256 0.0002051
0.5384491 0.2564804 0.0008803
0.5640655 0.2566803 0.0032014
0.5896476 0.2573074 0.0099619
0.6151639 0.2590266 0.0263598
0.6405684 0.2631861 0.0583351
0.6658007 0.2720522 0.1074382
0.6907908 0.2885191 0.1686028
0.7154663 0.3148258 0.2346774
0.7397618 0.3509430 0.3006102
0.7636276 0.3944060 0.3638796
0.7870370 0.4418261 0.4235235
0.8099905 0.4903633 0.4793448
0.8325164 0.5382017 0.5314845
0.8546684 0.5843827 0.5802200
0.8765212 0.6284996 0.6258742
0.8981644 0.6704597 0.6687745
0.9196946 0.7103349 0.7092346
0.9412091 0.7482769 0.7475467
0.9627993 0.7844708 0.7839787
0.0000000 0.2820513 0.0000000
0.0256410 0.2820513 0.0000000
0.0512821 0.2820513 0.0000000
0.0769231 0.2820513 0.0000000
0.1025641 0.2820513 0.0000000
0.1282051 0.2820513 0.0000000
0.1538462 0.2820513 0.0000000
0.1794872 0.2820513 0.0000000
0.2051282 0.2820513 0.0000000
0.2307692 0.2820513 0.0000000
0.2564103 0.2820513 0.0000000
0.2820513 0.2820513 0.0000000
0.3076923 0.2820513 0.0000000
0.3333333 0.2820513 0.0000000
0.3589744 0.2820513 0.0000000
0.3846154 0.2820513 0.0000000
0.4102564 0.2820513 0.0000001
0.4358974 0.2820513 0.0000007
0.4615383 0.2820515 0.0000057
0.4871787 0.2820531 0.0000374
0.5128172 0.2820620 0.0001972
0.5384498 0.2821019 0.0008578
0.5640670 0.2822513 0.0031489
0.5896504 0.2827281 0.0098629
0.6151686 0.2840551 0.0262143
0.6405754 0.2873129 0.0581793
0.6658104 0.2943873 0.1073240
0.6908032 0.3078766 0.1685547
0.7154812 0.3301951 0.2346872
0.7397786 0.3620795 0.3006583
0.7636458 0.4019048 0.3639481
0.7870560 0.4466561 0.4235998
0.8100095 0.4934184 0.4794209
0.8325347 0.5401338 0.5315558
0.8546857 0.5856172 0.5802842
0.8765373 0.6293008 0.6259305
0.8981789 0.6709890 0.6688230
0.9197075 0.7106910 0.7092757
0.9412205 0.7485208 0.7475811
0.9628091 0.7846408 0.7840072
0.0000000 0.3076923 0.0000000
0.0256410 0.3076923 0.0000000
0.0512821 0.3076923 0.0000000
0.0769231 0.3076923 0.0000000
0.1025641 0.3076923 0.0000000
0.1282051 0.3076923 0.0000000
0.1538462 0.3076923 0.0000000
0.1794872 0.3076923 0.0000000
0.2051282 0.3076923 0.0000000
0.2307692 0.3076923 0.0000000
0.2564103 0.3076923 0.0000000
0.2820513 0.3076923 0.0000000
0.3076923 0.3076923 0.0000000
0.3333333 0.3076923 0.0000000
0.3589744 0.3076923 0.0000000
0.3846154 0.3076923 0.0000000
0.4102564 0.3076923 0.0000001
0.4358974 0.3076923 0.0000006
0.4615383 0.3076924 0.0000052
0.4871788 0.3076935 0.0000350
0.5128175 0.3076995 0.0001883
0.5384506 0.3077279 0.0008313
0.5640687 0.3078376 0.0030857
0.5896537 0.3081957 0.0097416
0.6151743 0.3092101 0.0260343
0.6405841 0.3117409 0.0579850
0.6658225 0.3173370 0.1071809
0.6908187 0.3282688 0.1684940
0.7154998 0.3469521 0.2346993
0.7397998 0.3746893 0.3007186
0.7636687 0.4106867 0.3640341
0.7870797 0.4524584 0.4236955
0.8100333 0.4971524 0.4795165
0.8325579 0.5425217 0.5316454
0.8547076 0.5871536 0.5803650
0.8765575 0.6303022 0.6260014
0.8981972 0.6716523 0.6688839
0.9197238 0.7111380 0.7093274
0.9412348 0.7488274 0.7476244
0.9628215 0.7848546 0.7840431
0.0000000 0.3333333 0.0000000
0.0256410 0.3333333 0.0000000
0.0512821 0.3333333 0.0000000
0.0769231 0.3333333 0.0000000
0.1025641 0.3333333 0.0000000
0.1282051 0.3333333 0.0000000
0.1538462 0.3333333 0.0000000
0.1794872 0.3333333 0.0000000
0.2051282 0.3333333 0.0000000
0.2307692 0.3333333 0.0000000
0.2564103 0.3333333 0.0000000
0.2820513 0.3333333 0.0000000
0.3076923 0.3333333 0.0000000
0.3333333 0.3333333 0.0000000
0.3589744 0.3333333 0.0000000
0.3846154 0.3333333 0.0000000
0.4102564 0.3333333 0.0000001
0.4358974 0.3333333 0.0000005
0.4615384 0.3333334 0.0000048
0.4871789 0.3333340 0.0000326
0.5128178 0.3333379 0.0001785
0.5384514 0.3333575 0.0008009
0.5640708 0.3334362 0.0030108
0.5896577 0.3337008 0.0095949
0.6151812 0.3344670 0.0258133
0.6405947 0.3364139 0.0577441
0.6658373 0.3408000 0.1070022
0.6908379 0.3495658 0.1684176
0.7155230 0.3650038 0.2347139
0.7398262 0.3887795 0.3007937
0.7636974 0.4208490 0.3641418
0.7871095 0.4593644 0.4238157
0.8100632 0.5016865 0.4796365
0.8325869 0.5454598 0.5317581
0.8547351 0.5890600 0.5804666
0.8765829 0.6315514 0.6260906
0.8982203 0.6724826 0.6689607
0.9197444 0.7116988 0.7093924
0.9412528 0.7492125 0.7476789
0.9628371 0.7851234 0.7840883
0.0000000 0.3589744 0.0000000
0.0256410 0.3589744 0.0000000
0.0512821 0.3589744 0.0000000
0.0769231 0.3589744 0.0000000
0.1025641 0.3589744 0.0000000
0.1282051 0.3589744 0.0000000
0.1538462 0.3589744 0.0000000
0.1794872 0.3589744 0.0000000
0.2051282 0.3589744 0.0000000
0.2307692 0.3589744 0.0000000
0.2564103 0.3589744 0.0000000
0.2820513 0.3589744 0.0000000
0.3076923 0.3589744 0.0000000
0.3333333 0.3589744 0.0000000
0.3589744 0.3589744 0.0000000
0.3846154 0.3589744 0.0000000
0.4102564 0.3589744 0.0000001
0.4358974 0.3589744 0.0000005
0.4615384 0.3589744 0.0000045
0.4871790 0.3589747 0.0000304
0.5128182 0.3589771 0.0001685
0.5384524 0.3589900 0.0007675
0.5640731 0.3590448 0.0029248
0.5896624 0.3592361 0.0094208
0.6151894 0.3598059 0.0255455
0.6406076 0.3612861 0.0574479
0.6658555 0.3646883 0.1067803
0.6908616 0.3716416 0.1683220
0.7155518 0.3842364 0.2347317
0.7398592 0.4043188 0.3008875
0.7637332 0.4324607 0.3642765
0.7871469 0.4674985 0.4239664
0.8101007 0.5071498 0.4797872
0.8326234 0.5490555 0.5318996
0.8547697 0.5914171 0.5805944
0.8766149 0.6331060 0.6262028
0.8982493 0.6735201 0.6690573
0.9197702 0.7124015 0.7094743
0.9412754 0.7496959 0.7477475
0.9628567 0.7854612 0.7841453
0.0000000 0.3846154 0.0000000
0.0256410 0.3846154 0.0000000
0.0512821 0.3846154 0.0000000
0.0769231 0.3846154 0.0000000
0.1025641 0.3846154 0.0000000
0.1282051 0.3846154 0.0000000
0.1538462 0.3846154 0.0000000
0.1794872 0.3846154 0.0000000
0.2051282 0.3846154 0.0000000
0.2307692 0.3846154 0.0000000
0.2564103 0.3846154 0.0000000
0.2820513 0.3846154 0.0000000
0.3076923 0.3846154 0.0000000
0.3333333 0.3846154 0.0000000
0.3589744 0.3846154 0.0000000
0.3846154 0.3846154 0.0000000
0.4102564 0.3846154 0.0000001
0.4358974 0.3846154 0.0000006
0.4615384 0.3846154 0.0000045
0.4871791 0.3846155 0.0000291
0.5128185 0.3846168 0.0001597
0.5384534 0.3846248 0.0007338
0.5640757 0.3846614 0.0028304
0.5896678 0.3847959 0.0092206
0.6151992 0.3852111 0.0252273
0.6406231 0.3863197 0.0570888
0.6658777 0.3889268 0.1065078
0.6908908 0.3943791 0.1682036
0.7155875 0.4045242 0.2347538
0.7399002 0.4212407 0.3010044
0.7637780 0.4455558 0.3644450
0.7871936 0.4769703 0.4241551
0.8101477 0.5136744 0.4799762
0.8326692 0.5534282 0.5320773
0.8548131 0.5943185 0.5807549
0.8766552 0.6350349 0.6263439
0.8982858 0.6748141 0.6691788
0.9198027 0.7132808 0.7095773
0.9413040 0.7503021 0.7478339
0.9628814 0.7858855 0.7842170
0.0000001 0.4102564 0.0000001
0.0256411 0.4102564 0.0000001
0.0512821 0.4102564 0.0000001
0.0769231 0.4102564 0.0000001
0.1025641 0.4102564 0.0000001
0.1282052 0.4102564 0.0000001
0.1538462 0.4102564 0.0000001
0.1794872 0.4102564 0.0000001
0.2051282 0.4102564 0.0000001
0.2307692 0.4102564 0.0000001
0.2564103 0.4102564 0.0000001
0.2820513 0.4102564 0.0000001
0.3076923 0.4102564 0.0000001
0.3333333 0.4102564 0.0000001
0.3589744 0.4102564 0.0000001
0.3846154 0.4102564 0.0000001
0.4102564 0.4102564 0.0000003
0.4358974 0.4102564 0.0000010
0.4615384 0.4102564 0.0000053
0.4871791 0.4102564 0.0000297
0.5128187 0.4102570 0.0001549
0.5384544 0.4102615 0.0007048
0.5640784 0.4102845 0.0027356
0.5896738 0.4103753 0.0090019
0.6152104 0.4106698 0.0248622
0.6406414 0.4114841 0.0566637
0.6659045 0.4134525 0.1061794
0.6909265 0.4176728 0.1680598
0.7156314 0.4257378 0.2347820
0.7399511 0.4394507 0.3011503
0.7638337 0.4601298 0.3646554
0.7872520 0.4878646 0.4243912
0.8102066 0.5213890 0.4802130
0.8327267 0.5587062 0.5323003
0.8548677 0.5978711 0.5809565
0.8767057 0.6374194 0.6265211
0.8983317 0.6764238 0.6693315
0.9198437 0.7143791 0.7097070
0.9413399 0.7510614 0.7479426
0.9629125 0.7864178 0.7843073
0.0000012 0.4358974 0.0000012
0.0256419 0.4358974 0.0000012
0.0512828 0.4358974 0.0000012
0.0769236 0.4358974 0.0000011
0.1025645 0.4358974 0.0000011
0.1282054 0.4358974 0.0000010
0.1538464 0.4358974 0.0000010
0.1794873 0.4358974 0.0000009
0.2051283 0.4358974 0.0000009
0.2307693 0.4358974 0.0000008
0.2564103 0.4358974 0.0000007
0.2820513 0.4358974 0.0000007
0.3076923 0.4358974 0.0000006
0.3333333 0.4358974 0.0000005
0.3589744 0.4358974 0.0000005
0.3846154 0.4358974 0.0000006
0.4102564 0.4358974 0.0000010
0.4358974 0.4358974 0.0000024
0.4615384 0.4358974 0.0000080
0.4871791 0.4358973 0.0000346
0.5128189 0.4358975 0.0001590
0.5384553 0.4358996 0.0006912
0.5640811 0.4359127 0.0026579
0.5896802 0.4359707 0.0087866
0.6152230 0.4361719 0.0244686
0.6406628 0.4367547 0.0561812
0.6659364 0.4382130 0.1057961
0.6909696 0.4414303 0.1678912
0.7156853 0.4477515 0.2348202
0.7400138 0.4588341 0.3013326
0.7639029 0.4761410 0.3649179
0.7873248 0.5002348 0.4246862
0.8102802 0.5304100 0.4805094
0.8327987 0.5650222 0.5325797
0.8549361 0.6021940 0.5812095
0.8767692 0.6403542 0.6267438
0.8983894 0.6784202 0.6695235
0.9198951 0.7157480 0.7098699
0.9413851 0.7520109 0.7480793
0.9629516 0.7870849 0.7844209
0.0000085 0.4615382 0.0000085
0.0256476 0.4615382 0.0000084
0.0512872 0.4615382 0.0000083
0.0769270 0.4615382 0.0000082
0.1025671 0.4615382 0.0000080
0.1282074 0.4615382 0.0000078
0.1538478 0.4615382 0.0000076
0.1794884 0.4615383 0.0000073
0.2051290 0.4615383 0.0000070
0.2307698 0.4615383 0.0000066
0.2564106 0.4615383 0.0000061
0.2820515 0.4615383 0.0000057
0.3076924 0.4615383 0.0000052
0.3333334 0.4615384 0.0000048
0.3589744 0.4615384 0.0000045
0.3846154 0.4615384 0.0000045
0.4102564 0.4615384 0.0000053
0.4358974 0.4615384 0.0000080
0.4615383 0.4615383 0.0000171
0.4871791 0.4615382 0.0000503
0.5128190 0.4615380 0.0001838
0.5384559 0.4615385 0.0007141
0.5640835 0.4615449 0.0026329
0.5896868 0.4615787 0.0086239
0.6152367 0.4617089 0.0240967
0.6406870 0.4621115 0.0556770
0.6659737 0.4631653 0.1053760
0.6910212 0.4655723 0.1677069
0.7157506 0.4704479 0.2348769
0.7400908 0.4792656 0.3015622
0.7639885 0.4935146 0.3652456
0.7874153 0.5140970 0.4250545
0.8103721 0.5408328 0.4808798
0.8328888 0.5725070 0.5329295
0.8550219 0.6074154 0.5815265
0.8768489 0.6439472 0.6270231
0.8984619 0.6808868 0.6697645
0.9199599 0.7174499 0.7100748
0.9414420 0.7531962 0.7482512
0.9630009 0.7879201 0.7845638
0.0000494 0.4871783 0.0000494
0.0256796 0.4871783 0.0000491
0.0513120 0.4871783 0.0000487
0.0769463 0.4871783 0.0000481
0.1025819 0.4871783 0.0000475
0.1282187 0.4871784 0.0000467
0.1538564 0.4871784 0.0000458
0.1794948 0.4871785 0.0000446
0.2051337 0.4871785 0.0000432
0.2307732 0.4871786 0.0000415
0.2564130 0.4871787 0.0000396
0.2820531 0.4871787 0.0000374
0.3076935 0.4871788 0.0000350
0.3333340 0.4871789 0.0000326
0.3589747 0.4871790 0.0000304
0.3846155 0.4871791 0.0000291
0.4102564 0.4871791 0.0000297
0.4358973 0.4871791 0.0000346
0.4615382 0.4871791 0.0000503
0.4871789 0.4871789 0.0000988
0.5128188 0.4871784 0.0002590
0.5384561 0.4871779 0.0008196
0.5640853 0.4871796 0.0027332
0.5896928 0.4871964 0.0086162
0.6152508 0.4872739 0.0238610
0.6407135 0.4875380 0.0552442
0.6660163 0.4882741 0.1049746
0.6910818 0.4900317 0.1675358
0.7158290 0.4937211 0.2349702
0.7401845 0.5006174 0.3018552
0.7640936 0.5121499 0.3656556
