RealBloom/ocio/LUTs/post_formation_compression_srgb.cube
TITLE "Moment Compression v1m= 1 sim=1 ITU-R BT.709 I-ESpherical Chroma Compression v1s=0.6 sis=0.3"
# Compress chroma spherically. Resolution 40
# At a radius of 1.0, the compression is 40.0%.
# Very high radii are compressed by 70.0%.
LUT_3D_SIZE 4
0.0000000 0.0000000 0.0000000
0.3333333 0.0000000 0.0000000
0.6657660 0.1078354 0.1078354
0.9627653 0.7838797 0.7838797
0.0000000 0.3333333 0.0000000
0.3333333 0.3333333 0.0000000
0.6658373 0.3408000 0.1070022
0.9628371 0.7851234 0.7840883
0.1078354 0.6657660 0.1078354
0.3408000 0.6658373 0.1070022
0.6662172 0.6662172 0.1614802
0.9642561 0.8077118 0.7881873
0.7838797 0.9627653 0.7838797
0.7851234 0.9628371 0.7840883
0.8077118 0.9642561 0.7881873
0.9829370 0.9829370 0.8607553
0.0000000 0.0000000 0.3333333
0.3333333 0.0000000 0.3333333
0.6658373 0.1070022 0.3408000
0.9628371 0.7840883 0.7851234
0.0000000 0.3333333 0.3333333
0.3333333 0.3333333 0.3333333
0.6659086 0.3406981 0.3406981
0.9629089 0.7853296 0.7853296
0.1070022 0.6658373 0.3408000
0.3406981 0.6659086 0.3406981
0.6662883 0.6662883 0.3476044
0.9643281 0.8078782 0.7893806
0.7840883 0.9628371 0.7851234
0.7853296 0.9629089 0.7853296
0.8078782 0.9643281 0.7893806
0.9829969 0.9829969 0.8613038
0.1078354 0.1078354 0.6657660
0.3408000 0.1070022 0.6658373
0.6662172 0.1614802 0.6662172
0.9642561 0.7881873 0.8077118
0.1070022 0.3408000 0.6658373
0.3406981 0.3406981 0.6659086
0.6662883 0.3476044 0.6662883
0.9643281 0.7893806 0.8078782
0.1614802 0.6662172 0.6662172
0.3476044 0.6662883 0.6662883
0.6666667 0.6666667 0.6666667
0.9657517 0.8111505 0.8111505
0.7881873 0.9642561 0.8077118
0.7893806 0.9643281 0.8078782
0.8111505 0.9657517 0.8111505
0.9841918 0.9841918 0.8718503
0.7838797 0.7838797 0.9627653
0.7851234 0.7840883 0.9628371
0.8077118 0.7881873 0.9642561
0.9829370 0.8607553 0.9829370
0.7840883 0.7851234 0.9628371
0.7853296 0.7853296 0.9629089
0.8078782 0.7893806 0.9643281
0.9829969 0.8613038 0.9829969
0.7881873 0.8077118 0.9642561
0.7893806 0.8078782 0.9643281
0.8111505 0.8111505 0.9657517
0.9841918 0.8718503 0.9841918
0.8607553 0.9829370 0.9829370
0.8613038 0.9829969 0.9829969
0.8718503 0.9841918 0.9841918
1.0000000 1.0000000 1.0000000
