RealBloomCPP/assets/internal/ocio/LUTs/post_formation_compression_p3.cube
TITLE "Moment Compression v1m= 1 sim=1 DCI-P3 I-ESpherical Chroma Compression v1s=0.7 sis=0.4"
# Compress chroma spherically. Resolution 40
# At a radius of 1.0, the compression is 30.0%.
# Very high radii are compressed by 60.0%.
LUT_3D_SIZE 8
DOMAIN_MIN 0.000000 0.000000 0.000000
DOMAIN_MAX 0.897436 0.897436 0.897436
0.0000000 0.0000000 0.0000000
0.1282051 0.0000000 0.0000000
0.2564103 0.0000000 0.0000000
0.3846154 0.0000000 0.0000000
0.5128205 0.0000002 0.0000002
0.6409940 0.0049923 0.0049923
0.7673209 0.2525623 0.2525623
0.8845652 0.5756770 0.5756770
0.0000000 0.1282051 0.0000000
0.1282051 0.1282051 0.0000000
0.2564103 0.1282051 0.0000000
0.3846154 0.1282051 0.0000000
0.5128205 0.1282052 0.0000002
0.6409946 0.1297540 0.0049421
0.7673277 0.2743887 0.2525265
0.8845745 0.5768334 0.5757126
0.0000000 0.2564103 0.0000000
0.1282051 0.2564103 0.0000000
0.2564103 0.2564103 0.0000000
0.3846154 0.2564103 0.0000000
0.5128205 0.2564103 0.0000002
0.6409966 0.2568547 0.0047870
0.7673492 0.3242345 0.2524123
0.8846040 0.5804278 0.5758253
0.0000000 0.3846154 0.0000000
0.1282051 0.3846154 0.0000000
0.2564103 0.3846154 0.0000000
0.3846154 0.3846154 0.0000000
0.5128205 0.3846154 0.0000001
0.6410018 0.3847172 0.0043429
0.7674154 0.4091676 0.2520460
0.8846970 0.5911317 0.5761812
0.0000002 0.5128205 0.0000002
0.1282052 0.5128205 0.0000002
0.2564103 0.5128205 0.0000002
0.3846154 0.5128205 0.0000001
0.5128205 0.5128205 0.0000005
0.6410115 0.5128305 0.0034859
0.7676065 0.5194822 0.2509248
0.8849870 0.6196144 0.5772907
0.0049923 0.6409940 0.0049923
0.1297540 0.6409946 0.0049421
0.2568547 0.6409966 0.0047870
0.3847172 0.6410018 0.0043429
0.5128305 0.6410115 0.0034859
0.6410098 0.6410098 0.0097697
0.7680370 0.6418530 0.2503320
0.8858555 0.6800509 0.5806597
0.2525623 0.7673209 0.2525623
0.2743887 0.7673277 0.2525265
0.3242345 0.7673492 0.2524123
0.4091676 0.7674154 0.2520460
0.5194822 0.7676065 0.2509248
0.6418530 0.7680370 0.2503320
0.7682800 0.7682800 0.3236345
0.8880747 0.7753256 0.5913617
0.5756770 0.8845652 0.5756770
0.5768334 0.8845745 0.5757126
0.5804278 0.8846040 0.5758253
0.5911317 0.8846970 0.5761812
0.6196144 0.8849870 0.5772907
0.6800509 0.8858555 0.5806597
0.7753256 0.8880747 0.5913617
0.8911871 0.8911871 0.6522897
0.0000000 0.0000000 0.1282051
0.1282051 0.0000000 0.1282051
0.2564103 0.0000000 0.1282051
0.3846154 0.0000000 0.1282051
0.5128205 0.0000002 0.1282052
0.6409946 0.0049421 0.1297540
0.7673277 0.2525265 0.2743887
0.8845745 0.5757126 0.5768334
0.0000000 0.1282051 0.1282051
0.1282051 0.1282051 0.1282051
0.2564103 0.1282051 0.1282051
0.3846154 0.1282051 0.1282051
0.5128205 0.1282052 0.1282052
0.6409953 0.1297379 0.1297379
0.7673346 0.2743592 0.2743592
0.8845838 0.5768686 0.5768686
0.0000000 0.2564103 0.1282051
0.1282051 0.2564103 0.1282051
0.2564103 0.2564103 0.1282051
0.3846154 0.2564103 0.1282051
0.5128205 0.2564103 0.1282052
0.6409972 0.2568498 0.1296882
0.7673560 0.3242155 0.2742651
0.8846133 0.5804618 0.5769801
0.0000000 0.3846154 0.1282051
0.1282051 0.3846154 0.1282051
0.2564103 0.3846154 0.1282051
0.3846154 0.3846154 0.1282051
0.5128205 0.3846154 0.1282051
0.6410024 0.3847159 0.1295459
0.7674222 0.4091588 0.2739632
0.8847063 0.5911624 0.5773321
0.0000002 0.5128205 0.1282052
0.1282052 0.5128205 0.1282052
0.2564103 0.5128205 0.1282052
0.3846154 0.5128205 0.1282051
0.5128205 0.5128205 0.1282052
0.6410120 0.5128303 0.1292701
0.7676133 0.5194793 0.2730362
0.8849964 0.6196378 0.5784294
0.0049421 0.6409946 0.1297540
0.1297379 0.6409953 0.1297379
0.2568498 0.6409972 0.1296882
0.3847159 0.6410024 0.1295459
0.5128303 0.6410120 0.1292701
0.6410104 0.6410104 0.1312498
0.7680439 0.6418540 0.2724899
0.8858651 0.6800641 0.5817612
0.2525265 0.7673277 0.2743887
0.2743592 0.7673346 0.2743592
0.3242155 0.7673560 0.2742651
0.4091588 0.7674222 0.2739632
0.5194793 0.7676133 0.2730362
0.6418540 0.7680439 0.2724899
0.7682867 0.7682867 0.3353197
0.8880848 0.7753325 0.5923455
0.5757126 0.8845745 0.5768334
0.5768686 0.8845838 0.5768686
0.5804618 0.8846133 0.5769801
0.5911624 0.8847063 0.5773321
0.6196378 0.8849964 0.5784294
0.6800641 0.8858651 0.5817612
0.7753325 0.8880848 0.5923455
0.8911958 0.8911958 0.6528137
0.0000000 0.0000000 0.2564103
0.1282051 0.0000000 0.2564103
0.2564103 0.0000000 0.2564103
0.3846154 0.0000000 0.2564103
0.5128205 0.0000002 0.2564103
0.6409966 0.0047870 0.2568547
0.7673492 0.2524123 0.3242345
0.8846040 0.5758253 0.5804278
0.0000000 0.1282051 0.2564103
0.1282051 0.1282051 0.2564103
0.2564103 0.1282051 0.2564103
0.3846154 0.1282051 0.2564103
0.5128205 0.1282052 0.2564103
0.6409972 0.1296882 0.2568498
0.7673560 0.2742651 0.3242155
0.8846133 0.5769801 0.5804618
0.0000000 0.2564103 0.2564103
0.1282051 0.2564103 0.2564103
0.2564103 0.2564103 0.2564103
0.3846154 0.2564103 0.2564103
0.5128205 0.2564103 0.2564103
0.6409991 0.2568347 0.2568347
0.7673775 0.3241550 0.3241550
0.8846428 0.5805696 0.5805696
0.0000000 0.3846154 0.2564103
0.1282051 0.3846154 0.2564103
0.2564103 0.3846154 0.2564103
0.3846154 0.3846154 0.2564103
0.5128205 0.3846154 0.2564103
0.6410041 0.3847119 0.2567912
0.7674437 0.4091303 0.3239603
0.8847358 0.5912596 0.5809096
0.0000002 0.5128205 0.2564103
0.1282052 0.5128205 0.2564103
0.2564103 0.5128205 0.2564103
0.3846154 0.5128205 0.2564103
0.5128205 0.5128205 0.2564103
0.6410135 0.5128299 0.2567049
0.7676350 0.5194699 0.3233561
0.8850262 0.6197118 0.5819699
0.0047870 0.6409966 0.2568547
0.1296882 0.6409972 0.2568498
0.2568347 0.6409991 0.2568347
0.3847119 0.6410041 0.2567912
0.5128299 0.6410135 0.2567049
0.6410124 0.6410124 0.2572575
0.7680657 0.6418569 0.3228894
0.8858954 0.6801059 0.5851886
0.2524123 0.7673492 0.3242345
0.2742651 0.7673560 0.3242155
0.3241550 0.7673775 0.3241550
0.4091303 0.7674437 0.3239603
0.5194699 0.7676350 0.3233561
0.6418569 0.7680657 0.3228894
0.7683080 0.7683080 0.3659159
0.8881168 0.7753545 0.5954133
0.5758253 0.8846040 0.5804278
0.5769801 0.8846133 0.5804618
0.5805696 0.8846428 0.5805696
0.5912596 0.8847358 0.5809096
0.6197118 0.8850262 0.5819699
0.6801059 0.8858954 0.5851886
0.7753545 0.8881168 0.5954133
0.8912236 0.8912236 0.6544619
0.0000000 0.0000000 0.3846154
0.1282051 0.0000000 0.3846154
0.2564103 0.0000000 0.3846154
0.3846154 0.0000000 0.3846154
0.5128205 0.0000001 0.3846154
0.6410018 0.0043429 0.3847172
0.7674154 0.2520460 0.4091676
0.8846970 0.5761812 0.5911317
0.0000000 0.1282051 0.3846154
0.1282051 0.1282051 0.3846154
0.2564103 0.1282051 0.3846154
0.3846154 0.1282051 0.3846154
0.5128205 0.1282051 0.3846154
0.6410024 0.1295459 0.3847159
0.7674222 0.2739632 0.4091588
0.8847063 0.5773321 0.5911624
0.0000000 0.2564103 0.3846154
0.1282051 0.2564103 0.3846154
0.2564103 0.2564103 0.3846154
0.3846154 0.2564103 0.3846154
0.5128205 0.2564103 0.3846154
0.6410041 0.2567912 0.3847119
0.7674437 0.3239603 0.4091303
0.8847358 0.5809096 0.5912596
0.0000000 0.3846154 0.3846154
0.1282051 0.3846154 0.3846154
0.2564103 0.3846154 0.3846154
0.3846154 0.3846154 0.3846154
0.5128205 0.3846154 0.3846154
0.6410088 0.3847001 0.3847001
0.7675101 0.4090378 0.4090378
0.8848291 0.5915666 0.5915666
0.0000001 0.5128205 0.3846154
0.1282051 0.5128205 0.3846154
0.2564103 0.5128205 0.3846154
0.3846154 0.5128205 0.3846154
0.5128205 0.5128205 0.3846154
0.6410172 0.5128284 0.3846752
0.7677016 0.5194380 0.4087404
0.8851200 0.6199453 0.5925234
0.0043429 0.6410018 0.3847172
0.1295459 0.6410024 0.3847159
0.2567912 0.6410041 0.3847119
0.3847001 0.6410088 0.3847001
0.5128284 0.6410172 0.3846752
0.6410172 0.6410172 0.3847848
0.7681329 0.6418641 0.4083605
0.8859913 0.6802375 0.5954255
0.2520460 0.7674154 0.4091676
0.2739632 0.7674222 0.4091588
0.3239603 0.7674437 0.4091303
0.4090378 0.7675101 0.4090378
0.5194380 0.7677016 0.4087404
0.6418641 0.7681329 0.4083605
0.7683738 0.7683738 0.4290432
0.8882177 0.7754232 0.6046353
0.5761812 0.8846970 0.5911317
0.5773321 0.8847063 0.5911624
0.5809096 0.8847358 0.5912596
0.5915666 0.8848291 0.5915666
0.6199453 0.8851200 0.5925234
0.6802375 0.8859913 0.5954255
0.7754232 0.8882177 0.6046353
0.8913114 0.8913114 0.6595420
0.0000002 0.0000002 0.5128205
0.1282052 0.0000002 0.5128205
0.2564103 0.0000002 0.5128205
0.3846154 0.0000001 0.5128205
0.5128205 0.0000005 0.5128205
0.6410115 0.0034859 0.5128305
0.7676065 0.2509248 0.5194822
0.8849870 0.5772907 0.6196144
0.0000002 0.1282052 0.5128205
0.1282052 0.1282052 0.5128205
0.2564103 0.1282052 0.5128205
0.3846154 0.1282051 0.5128205
0.5128205 0.1282052 0.5128205
0.6410120 0.1292701 0.5128303
0.7676133 0.2730362 0.5194793
0.8849964 0.5784294 0.6196378
0.0000002 0.2564103 0.5128205
0.1282052 0.2564103 0.5128205
0.2564103 0.2564103 0.5128205
0.3846154 0.2564103 0.5128205
0.5128205 0.2564103 0.5128205
0.6410135 0.2567049 0.5128299
0.7676350 0.3233561 0.5194699
0.8850262 0.5819699 0.6197118
0.0000001 0.3846154 0.5128205
0.1282051 0.3846154 0.5128205
0.2564103 0.3846154 0.5128205
0.3846154 0.3846154 0.5128205
0.5128205 0.3846154 0.5128205
0.6410172 0.3846752 0.5128284
0.7677016 0.4087404 0.5194380
0.8851200 0.5925234 0.6199453
0.0000005 0.5128205 0.5128205
0.1282052 0.5128205 0.5128205
0.2564103 0.5128205 0.5128205
0.3846154 0.5128205 0.5128205
0.5128205 0.5128205 0.5128205
0.6410231 0.5128245 0.5128245
0.7678940 0.5193227 0.5193227
0.8854130 0.6206720 0.6206720
0.0034859 0.6410115 0.5128305
0.1292701 0.6410120 0.5128303
0.2567049 0.6410135 0.5128299
0.3846752 0.6410172 0.5128284
0.5128245 0.6410231 0.5128245
0.6410244 0.6410244 0.5128285
0.7683261 0.6418689 0.5190375
0.8862905 0.6806441 0.6228654
0.2509248 0.7676065 0.5194822
0.2730362 0.7676133 0.5194793
0.3233561 0.7676350 0.5194699
0.4087404 0.7677016 0.5194380
0.5193227 0.7678940 0.5193227
0.6418689 0.7683261 0.5190375
0.7685644 0.7685644 0.5254650
0.8885338 0.7756326 0.6297517
0.5772907 0.8849870 0.6196144
0.5784294 0.8849964 0.6196378
0.5819699 0.8850262 0.6197118
0.5925234 0.8851200 0.6199453
0.6206720 0.8854130 0.6206720
0.6806441 0.8862905 0.6228654
0.7756326 0.8885338 0.6297517
0.8915872 0.8915872 0.6743205
0.0049923 0.0049923 0.6409940
0.1297540 0.0049421 0.6409946
0.2568547 0.0047870 0.6409966
0.3847172 0.0043429 0.6410018
0.5128305 0.0034859 0.6410115
0.6410098 0.0097697 0.6410098
0.7680370 0.2503320 0.6418530
0.8858555 0.5806597 0.6800509
0.0049421 0.1297540 0.6409946
0.1297379 0.1297379 0.6409953
0.2568498 0.1296882 0.6409972
0.3847159 0.1295459 0.6410024
0.5128303 0.1292701 0.6410120
0.6410104 0.1312498 0.6410104
0.7680439 0.2724899 0.6418540
0.8858651 0.5817612 0.6800641
0.0047870 0.2568547 0.6409966
0.1296882 0.2568498 0.6409972
0.2568347 0.2568347 0.6409991
0.3847119 0.2567912 0.6410041
0.5128299 0.2567049 0.6410135
0.6410124 0.2572575 0.6410124
0.7680657 0.3228894 0.6418569
0.8858954 0.5851886 0.6801059
0.0043429 0.3847172 0.6410018
0.1295459 0.3847159 0.6410024
0.2567912 0.3847119 0.6410041
0.3847001 0.3847001 0.6410088
0.5128284 0.3846752 0.6410172
0.6410172 0.3847848 0.6410172
0.7681329 0.4083605 0.6418641
0.8859913 0.5954255 0.6802375
0.0034859 0.5128305 0.6410115
0.1292701 0.5128303 0.6410120
0.2567049 0.5128299 0.6410135
0.3846752 0.5128284 0.6410172
0.5128245 0.5128245 0.6410231
0.6410244 0.5128285 0.6410244
0.7683261 0.5190375 0.6418689
0.8862905 0.6228654 0.6806441
0.0097697 0.6410098 0.6410098
0.1312498 0.6410104 0.6410104
0.2572575 0.6410124 0.6410124
0.3847848 0.6410172 0.6410172
0.5128285 0.6410244 0.6410244
0.6410256 0.6410256 0.6410256
0.7687544 0.6417777 0.6417777
0.8871885 0.6818402 0.6818402
0.2503320 0.7680370 0.6418530
0.2724899 0.7680439 0.6418540
0.3228894 0.7680657 0.6418569
0.4083605 0.7681329 0.6418641
0.5190375 0.7683261 0.6418689
0.6417777 0.7687544 0.6417777
0.7689928 0.7689928 0.6425246
0.8894901 0.7762103 0.6853073
0.5806597 0.8858555 0.6800509
0.5817612 0.8858651 0.6800641
0.5851886 0.8858954 0.6801059
0.5954255 0.8859913 0.6802375
0.6228654 0.8862905 0.6806441
0.6818402 0.8871885 0.6818402
0.7762103 0.8894901 0.6853073
0.8924304 0.8924304 0.7116142
0.2525623 0.2525623 0.7673209
0.2743887 0.2525265 0.7673277
0.3242345 0.2524123 0.7673492
0.4091676 0.2520460 0.7674154
0.5194822 0.2509248 0.7676065
0.6418530 0.2503320 0.7680370
0.7682800 0.3236345 0.7682800
0.8880747 0.5913617 0.7753256
0.2525265 0.2743887 0.7673277
0.2743592 0.2743592 0.7673346
0.3242155 0.2742651 0.7673560
0.4091588 0.2739632 0.7674222
0.5194793 0.2730362 0.7676133
0.6418540 0.2724899 0.7680439
0.7682867 0.3353197 0.7682867
0.8880848 0.5923455 0.7753325
0.2524123 0.3242345 0.7673492
0.2742651 0.3242155 0.7673560
0.3241550 0.3241550 0.7673775
0.4091303 0.3239603 0.7674437
0.5194699 0.3233561 0.7676350
0.6418569 0.3228894 0.7680657
0.7683080 0.3659159 0.7683080
0.8881168 0.5954133 0.7753545
0.2520460 0.4091676 0.7674154
0.2739632 0.4091588 0.7674222
0.3239603 0.4091303 0.7674437
0.4090378 0.4090378 0.7675101
0.5194380 0.4087404 0.7677016
0.6418641 0.4083605 0.7681329
0.7683738 0.4290432 0.7683738
0.8882177 0.6046353 0.7754232
0.2509248 0.5194822 0.7676065
0.2730362 0.5194793 0.7676133
0.3233561 0.5194699 0.7676350
0.4087404 0.5194380 0.7677016
0.5193227 0.5193227 0.7678940
0.6418689 0.5190375 0.7683261
0.7685644 0.5254650 0.7685644
0.8885338 0.6297517 0.7756326
0.2503320 0.6418530 0.7680370
0.2724899 0.6418540 0.7680439
0.3228894 0.6418569 0.7680657
0.4083605 0.6418641 0.7681329
0.5190375 0.6418689 0.7683261
0.6417777 0.6417777 0.7687544
0.7689928 0.6425246 0.7689928
0.8894901 0.6853073 0.7762103
0.3236345 0.7682800 0.7682800
0.3353197 0.7682867 0.7682867
0.3659159 0.7683080 0.7683080
0.4290432 0.7683738 0.7683738
0.5254650 0.7685644 0.7685644
0.6425246 0.7689928 0.7689928
0.7692308 0.7692308 0.7692308
0.8919983 0.7773500 0.7773500
0.5913617 0.8880747 0.7753256
0.5923455 0.8880848 0.7753325
0.5954133 0.8881168 0.7753545
0.6046353 0.8882177 0.7754232
0.6297517 0.8885338 0.7756326
0.6853073 0.8894901 0.7762103
0.7773500 0.8919983 0.7773500
0.8947504 0.8947504 0.7849155
0.5756770 0.5756770 0.8845652
0.5768334 0.5757126 0.8845745
0.5804278 0.5758253 0.8846040
0.5911317 0.5761812 0.8846970
0.6196144 0.5772907 0.8849870
0.6800509 0.5806597 0.8858555
0.7753256 0.5913617 0.8880747
0.8911871 0.6522897 0.8911871
0.5757126 0.5768334 0.8845745
0.5768686 0.5768686 0.8845838
0.5804618 0.5769801 0.8846133
0.5911624 0.5773321 0.8847063
0.6196378 0.5784294 0.8849964
0.6800641 0.5817612 0.8858651
0.7753325 0.5923455 0.8880848
0.8911958 0.6528137 0.8911958
0.5758253 0.5804278 0.8846040
0.5769801 0.5804618 0.8846133
0.5805696 0.5805696 0.8846428
0.5912596 0.5809096 0.8847358
0.6197118 0.5819699 0.8850262
0.6801059 0.5851886 0.8858954
0.7753545 0.5954133 0.8881168
0.8912236 0.6544619 0.8912236
0.5761812 0.5911317 0.8846970
0.5773321 0.5911624 0.8847063
0.5809096 0.5912596 0.8847358
0.5915666 0.5915666 0.8848291
0.6199453 0.5925234 0.8851200
0.6802375 0.5954255 0.8859913
0.7754232 0.6046353 0.8882177
0.8913114 0.6595420 0.8913114
0.5772907 0.6196144 0.8849870
0.5784294 0.6196378 0.8849964
0.5819699 0.6197118 0.8850262
0.5925234 0.6199453 0.8851200
0.6206720 0.6206720 0.8854130
0.6806441 0.6228654 0.8862905
0.7756326 0.6297517 0.8885338
0.8915872 0.6743205 0.8915872
0.5806597 0.6800509 0.8858555
0.5817612 0.6800641 0.8858651
0.5851886 0.6801059 0.8858954
0.5954255 0.6802375 0.8859913
0.6228654 0.6806441 0.8862905
0.6818402 0.6818402 0.8871885
0.7762103 0.6853073 0.8894901
0.8924304 0.7116142 0.8924304
0.5913617 0.7753256 0.8880747
0.5923455 0.7753325 0.8880848
0.5954133 0.7753545 0.8881168
0.6046353 0.7754232 0.8882177
0.6297517 0.7756326 0.8885338
0.6853073 0.7762103 0.8894901
0.7773500 0.7773500 0.8919983
0.8947504 0.7849155 0.8947504
0.6522897 0.8911871 0.8911871
0.6528137 0.8911958 0.8911958
0.6544619 0.8912236 0.8912236
0.6595420 0.8913114 0.8913114
0.6743205 0.8915872 0.8915872
0.7116142 0.8924304 0.8924304
0.7849155 0.8947504 0.8947504
0.8974359 0.8974359 0.8974359
