RealBloomCPP/assets/internal/ocio/LUTs/post_formation_compression_p3.cube
TITLE "Moment Compression v1m= 1 sim=1 DCI-P3 I-ESpherical Chroma Compression v1s=0.7 sis=0.4"
# Compress chroma spherically. Resolution 40
# At a radius of 1.0, the compression is 30.0%.
# Very high radii are compressed by 60.0%.
LUT_3D_SIZE 40
0.0000000 0.0000000 0.0000000
0.0256410 0.0000000 0.0000000
0.0512821 0.0000000 0.0000000
0.0769231 0.0000000 0.0000000
0.1025641 0.0000000 0.0000000
0.1282051 0.0000000 0.0000000
0.1538462 0.0000000 0.0000000
0.1794872 0.0000000 0.0000000
0.2051282 0.0000000 0.0000000
0.2307692 0.0000000 0.0000000
0.2564103 0.0000000 0.0000000
0.2820513 0.0000000 0.0000000
0.3076923 0.0000000 0.0000000
0.3333333 0.0000000 0.0000000
0.3589744 0.0000000 0.0000000
0.3846154 0.0000000 0.0000000
0.4102564 0.0000000 0.0000000
0.4358974 0.0000000 0.0000000
0.4615385 0.0000000 0.0000000
0.4871795 0.0000000 0.0000000
0.5128205 0.0000002 0.0000002
0.5384615 0.0000030 0.0000030
0.5641022 0.0000288 0.0000288
0.5897416 0.0002049 0.0002049
0.6153757 0.0011322 0.0011322
0.6409940 0.0049923 0.0049923
0.6665726 0.0176298 0.0176298
0.6920684 0.0487371 0.0487371
0.7174158 0.1036750 0.1036750
0.7425305 0.1754649 0.1754649
0.7673209 0.2525623 0.2525623
0.7917041 0.3276521 0.3276521
0.8156218 0.3978155 0.3978155
0.8390522 0.4623603 0.4623603
0.8620142 0.5214808 0.5214808
0.8845652 0.5756770 0.5756770
0.9067935 0.6255248 0.6255248
0.9288066 0.6715885 0.6715885
0.9507197 0.7143887 0.7143887
0.9726444 0.7543927 0.7543927
0.0000000 0.0256410 0.0000000
0.0256410 0.0256410 0.0000000
0.0512821 0.0256410 0.0000000
0.0769231 0.0256410 0.0000000
0.1025641 0.0256410 0.0000000
0.1282051 0.0256410 0.0000000
0.1538462 0.0256410 0.0000000
0.1794872 0.0256410 0.0000000
0.2051282 0.0256410 0.0000000
0.2307692 0.0256410 0.0000000
0.2564103 0.0256410 0.0000000
0.2820513 0.0256410 0.0000000
0.3076923 0.0256410 0.0000000
0.3333333 0.0256410 0.0000000
0.3589744 0.0256410 0.0000000
0.3846154 0.0256410 0.0000000
0.4102564 0.0256410 0.0000000
0.4358974 0.0256410 0.0000000
0.4615385 0.0256410 0.0000000
0.4871795 0.0256410 0.0000000
0.5128205 0.0256412 0.0000002
0.5384615 0.0256434 0.0000030
0.5641022 0.0256637 0.0000287
0.5897416 0.0258026 0.0002043
0.6153758 0.0265361 0.0011300
0.6409941 0.0296074 0.0049863
0.6665728 0.0398203 0.0176175
0.6920687 0.0658607 0.0487198
0.7174162 0.1143774 0.1036588
0.7425311 0.1811563 0.1754545
0.7673217 0.2554081 0.2525580
0.7917051 0.3290853 0.3276521
0.8156229 0.3985641 0.3978181
0.8390533 0.4627691 0.4623641
0.8620153 0.5217142 0.5214851
0.8845664 0.5758158 0.5756813
0.9067946 0.6256105 0.6255288
0.9288076 0.6716432 0.6715920
0.9507205 0.7144247 0.7143918
0.9726451 0.7544169 0.7543953
0.0000000 0.0512821 0.0000000
0.0256410 0.0512821 0.0000000
0.0512821 0.0512821 0.0000000
0.0769231 0.0512821 0.0000000
0.1025641 0.0512821 0.0000000
0.1282051 0.0512821 0.0000000
0.1538462 0.0512821 0.0000000
0.1794872 0.0512821 0.0000000
0.2051282 0.0512821 0.0000000
0.2307692 0.0512821 0.0000000
0.2564103 0.0512821 0.0000000
0.2820513 0.0512821 0.0000000
0.3076923 0.0512821 0.0000000
0.3333333 0.0512821 0.0000000
0.3589744 0.0512821 0.0000000
0.3846154 0.0512821 0.0000000
0.4102564 0.0512821 0.0000000
0.4358974 0.0512821 0.0000000
0.4615385 0.0512821 0.0000000
0.4871795 0.0512821 0.0000000
0.5128205 0.0512822 0.0000002
0.5384615 0.0512839 0.0000030
0.5641022 0.0512998 0.0000285
0.5897416 0.0514092 0.0002035
0.6153758 0.0519886 0.0011272
0.6409941 0.0544273 0.0049787
0.6665730 0.0626443 0.0176021
0.6920690 0.0842432 0.0486980
0.7174168 0.1265404 0.1036383
0.7425319 0.1879350 0.1754415
0.7673228 0.2588928 0.2525527
0.7917063 0.3308651 0.3276522
0.8156243 0.3995002 0.3978214
0.8390548 0.4632821 0.4623689
0.8620167 0.5220076 0.5214905
0.8845678 0.5759905 0.5756866
0.9067959 0.6257184 0.6255338
0.9288088 0.6717121 0.6715965
0.9507216 0.7144699 0.7143957
0.9726461 0.7544475 0.7543986
0.0000000 0.0769231 0.0000000
0.0256410 0.0769231 0.0000000
0.0512821 0.0769231 0.0000000
0.0769231 0.0769231 0.0000000
0.1025641 0.0769231 0.0000000
0.1282051 0.0769231 0.0000000
0.1538462 0.0769231 0.0000000
0.1794872 0.0769231 0.0000000
0.2051282 0.0769231 0.0000000
0.2307692 0.0769231 0.0000000
0.2564103 0.0769231 0.0000000
0.2820513 0.0769231 0.0000000
0.3076923 0.0769231 0.0000000
0.3333333 0.0769231 0.0000000
0.3589744 0.0769231 0.0000000
0.3846154 0.0769231 0.0000000
0.4102564 0.0769231 0.0000000
0.4358974 0.0769231 0.0000000
0.4615385 0.0769231 0.0000000
0.4871795 0.0769231 0.0000000
0.5128205 0.0769232 0.0000002
0.5384615 0.0769245 0.0000029
0.5641022 0.0769370 0.0000283
0.5897416 0.0770229 0.0002025
0.6153758 0.0774797 0.0011236
0.6409943 0.0794124 0.0049691
0.6665732 0.0859975 0.0175827
0.6920695 0.1037650 0.0486706
0.7174175 0.1401813 0.1036126
0.7425329 0.1959255 0.1754251
0.7673241 0.2631331 0.2525459
0.7917078 0.3330676 0.3276522
0.8156260 0.4006684 0.3978255
0.8390566 0.4639251 0.4623750
0.8620186 0.5223762 0.5214973
0.8845695 0.5762102 0.5756934
0.9067975 0.6258542 0.6255400
0.9288103 0.6717988 0.6716021
0.9507229 0.7145270 0.7144005
0.9726473 0.7544860 0.7544027
0.0000000 0.1025641 0.0000000
0.0256410 0.1025641 0.0000000
0.0512821 0.1025641 0.0000000
0.0769231 0.1025641 0.0000000
0.1025641 0.1025641 0.0000000
0.1282051 0.1025641 0.0000000
0.1538462 0.1025641 0.0000000
0.1794872 0.1025641 0.0000000
0.2051282 0.1025641 0.0000000
0.2307692 0.1025641 0.0000000
0.2564103 0.1025641 0.0000000
0.2820513 0.1025641 0.0000000
0.3076923 0.1025641 0.0000000
0.3333333 0.1025641 0.0000000
0.3589744 0.1025641 0.0000000
0.3846154 0.1025641 0.0000000
0.4102564 0.1025641 0.0000000
0.4358974 0.1025641 0.0000000
0.4615385 0.1025641 0.0000000
0.4871795 0.1025641 0.0000000
0.5128205 0.1025642 0.0000002
0.5384615 0.1025652 0.0000029
0.5641022 0.1025749 0.0000280
0.5897416 0.1026422 0.0002012
0.6153759 0.1030017 0.0011192
0.6409944 0.1045300 0.0049571
0.6665735 0.1097887 0.0175583
0.6920701 0.1242972 0.0486360
0.7174184 0.1552786 0.1035802
0.7425342 0.2052375 0.1754044
0.7673257 0.2682548 0.2525373
0.7917098 0.3357820 0.3276523
0.8156281 0.4021231 0.3978306
0.8390588 0.4647300 0.4623827
0.8620209 0.5228388 0.5215059
0.8845717 0.5764864 0.5757019
0.9067996 0.6260250 0.6255479
0.9288122 0.6719079 0.6716092
0.9507246 0.7145988 0.7144067
0.9726487 0.7545344 0.7544080
0.0000000 0.1282051 0.0000000
0.0256410 0.1282051 0.0000000
0.0512821 0.1282051 0.0000000
0.0769231 0.1282051 0.0000000
0.1025641 0.1282051 0.0000000
0.1282051 0.1282051 0.0000000
0.1538462 0.1282051 0.0000000
0.1794872 0.1282051 0.0000000
0.2051282 0.1282051 0.0000000
0.2307692 0.1282051 0.0000000
0.2564103 0.1282051 0.0000000
0.2820513 0.1282051 0.0000000
0.3076923 0.1282051 0.0000000
0.3333333 0.1282051 0.0000000
0.3589744 0.1282051 0.0000000
0.3846154 0.1282051 0.0000000
0.4102564 0.1282051 0.0000000
0.4358974 0.1282051 0.0000000
0.4615385 0.1282051 0.0000000
0.4871795 0.1282051 0.0000000
0.5128205 0.1282052 0.0000002
0.5384615 0.1282060 0.0000028
0.5641022 0.1282135 0.0000277
0.5897417 0.1282660 0.0001996
0.6153760 0.1285482 0.0011137
0.6409946 0.1297540 0.0049421
0.6665739 0.1339394 0.0175277
0.6920708 0.1457093 0.0485926
0.7174195 0.1717743 0.1035394
0.7425358 0.2159566 0.1753783
0.7673277 0.2743887 0.2525265
0.7917122 0.3391100 0.3276524
0.8156309 0.4039292 0.3978371
0.8390617 0.4657359 0.4623924
0.8620237 0.5234190 0.5215167
0.8845745 0.5768334 0.5757126
0.9068023 0.6262399 0.6255579
0.9288146 0.6720453 0.6716181
0.9507268 0.7146892 0.7144144
0.9726506 0.7545955 0.7544145
0.0000000 0.1538462 0.0000000
0.0256410 0.1538462 0.0000000
0.0512821 0.1538462 0.0000000
0.0769231 0.1538462 0.0000000
0.1025641 0.1538462 0.0000000
0.1282051 0.1538462 0.0000000
0.1538462 0.1538462 0.0000000
0.1794872 0.1538462 0.0000000
0.2051282 0.1538462 0.0000000
0.2307692 0.1538462 0.0000000
0.2564103 0.1538462 0.0000000
0.2820513 0.1538462 0.0000000
0.3076923 0.1538462 0.0000000
0.3333333 0.1538462 0.0000000
0.3589744 0.1538462 0.0000000
0.3846154 0.1538462 0.0000000
0.4102564 0.1538462 0.0000000
0.4358974 0.1538462 0.0000000
0.4615385 0.1538462 0.0000000
0.4871795 0.1538462 0.0000000
0.5128205 0.1538462 0.0000002
0.5384615 0.1538468 0.0000028
0.5641022 0.1538526 0.0000273
0.5897417 0.1538934 0.0001977
0.6153761 0.1541142 0.0011067
0.6409949 0.1550631 0.0049232
0.6665744 0.1583834 0.0174891
0.6920717 0.1678755 0.0485379
0.7174210 0.1895793 0.1034880
0.7425378 0.2281369 0.1753454
0.7673303 0.2816638 0.2525129
0.7917153 0.3431660 0.3276525
0.8156343 0.4061637 0.3978453
0.8390653 0.4669904 0.4624046
0.8620274 0.5241457 0.5215303
0.8845781 0.5772691 0.5757261
0.9068056 0.6265101 0.6255705
0.9288176 0.6722181 0.6716293
0.9507295 0.7148029 0.7144241
0.9726530 0.7546723 0.7544228
0.0000000 0.1794872 0.0000000
0.0256410 0.1794872 0.0000000
0.0512821 0.1794872 0.0000000
0.0769231 0.1794872 0.0000000
0.1025641 0.1794872 0.0000000
0.1282051 0.1794872 0.0000000
0.1538462 0.1794872 0.0000000
0.1794872 0.1794872 0.0000000
0.2051282 0.1794872 0.0000000
0.2307692 0.1794872 0.0000000
0.2564103 0.1794872 0.0000000
0.2820513 0.1794872 0.0000000
0.3076923 0.1794872 0.0000000
0.3333333 0.1794872 0.0000000
0.3589744 0.1794872 0.0000000
0.3846154 0.1794872 0.0000000
0.4102564 0.1794872 0.0000000
0.4358974 0.1794872 0.0000000
0.4615385 0.1794872 0.0000000
0.4871795 0.1794872 0.0000000
0.5128205 0.1794872 0.0000002
0.5384615 0.1794877 0.0000027
0.5641022 0.1794921 0.0000267
0.5897417 0.1795237 0.0001952
0.6153762 0.1796957 0.0010981
0.6409952 0.1804400 0.0048995
0.6665751 0.1830654 0.0174407
0.6920728 0.1906795 0.0484691
0.7174228 0.2085821 0.1034233
0.7425403 0.2417956 0.1753040
0.7673336 0.2901995 0.2524957
0.7917191 0.3480742 0.3276526
0.8156386 0.4089167 0.3978555
0.8390699 0.4685512 0.4624199
0.8620320 0.5250546 0.5215474
0.8845825 0.5778157 0.5757431
0.9068097 0.6268495 0.6255863
0.9288214 0.6724355 0.6716434
0.9507329 0.7149461 0.7144364
0.9726560 0.7547691 0.7544333
0.0000000 0.2051282 0.0000000
0.0256410 0.2051282 0.0000000
0.0512821 0.2051282 0.0000000
0.0769231 0.2051282 0.0000000
0.1025641 0.2051282 0.0000000
0.1282051 0.2051282 0.0000000
0.1538462 0.2051282 0.0000000
0.1794872 0.2051282 0.0000000
0.2051282 0.2051282 0.0000000
0.2307692 0.2051282 0.0000000
0.2564103 0.2051282 0.0000000
0.2820513 0.2051282 0.0000000
0.3076923 0.2051282 0.0000000
0.3333333 0.2051282 0.0000000
0.3589744 0.2051282 0.0000000
0.3846154 0.2051282 0.0000000
0.4102564 0.2051282 0.0000000
0.4358974 0.2051282 0.0000000
0.4615385 0.2051282 0.0000000
0.4871795 0.2051282 0.0000000
0.5128205 0.2051282 0.0000002
0.5384615 0.2051286 0.0000026
0.5641023 0.2051319 0.0000261
0.5897418 0.2051562 0.0001922
0.6153763 0.2052896 0.0010873
0.6409955 0.2058713 0.0048699
0.6665758 0.2079397 0.0173800
0.6920742 0.2140166 0.0483826
0.7174250 0.2286570 0.1033419
0.7425435 0.2569108 0.1752518
0.7673376 0.3000966 0.2524741
0.7917240 0.3539646 0.3276527
0.8156440 0.4122910 0.3978685
0.8390756 0.4704871 0.4624392
0.8620377 0.5261893 0.5215690
0.8845881 0.5785005 0.5757645
0.9068150 0.6272757 0.6256062
0.9288262 0.6727088 0.6716612
0.9507372 0.7151263 0.7144519
0.9726597 0.7548909 0.7544465
0.0000000 0.2307692 0.0000000
0.0256410 0.2307692 0.0000000
0.0512821 0.2307692 0.0000000
0.0769231 0.2307692 0.0000000
0.1025641 0.2307692 0.0000000
0.1282051 0.2307692 0.0000000
0.1538462 0.2307692 0.0000000
0.1794872 0.2307692 0.0000000
0.2051282 0.2307692 0.0000000
0.2307692 0.2307692 0.0000000
0.2564103 0.2307692 0.0000000
0.2820513 0.2307692 0.0000000
0.3076923 0.2307692 0.0000000
0.3333333 0.2307692 0.0000000
0.3589744 0.2307692 0.0000000
0.3846154 0.2307692 0.0000000
0.4102564 0.2307692 0.0000000
0.4358974 0.2307692 0.0000000
0.4615385 0.2307692 0.0000000
0.4871795 0.2307692 0.0000000
0.5128205 0.2307692 0.0000002
0.5384615 0.2307695 0.0000025
0.5641023 0.2307720 0.0000253
0.5897418 0.2307904 0.0001885
0.6153765 0.2308932 0.0010739
0.6409960 0.2313457 0.0048329
0.6665768 0.2329688 0.0173040
0.6920760 0.2377952 0.0482739
0.7174278 0.2496735 0.1032394
0.7425475 0.2734242 0.1751860
0.7673428 0.3114285 0.2524468
0.7917301 0.3609676 0.3276527
0.8156508 0.4164017 0.3978847
0.8390828 0.4728793 0.4624635
0.8620450 0.5276028 0.5215961
0.8845951 0.5793574 0.5757914
0.9068216 0.6278105 0.6256312
0.9288323 0.6730522 0.6716836
0.9507426 0.7153529 0.7144713
0.9726644 0.7550442 0.7544631
0.0000000 0.2564103 0.0000000
0.0256410 0.2564103 0.0000000
0.0512821 0.2564103 0.0000000
0.0769231 0.2564103 0.0000000
0.1025641 0.2564103 0.0000000
0.1282051 0.2564103 0.0000000
0.1538462 0.2564103 0.0000000
0.1794872 0.2564103 0.0000000
0.2051282 0.2564103 0.0000000
0.2307692 0.2564103 0.0000000
0.2564103 0.2564103 0.0000000
0.2820513 0.2564103 0.0000000
0.3076923 0.2564103 0.0000000
0.3333333 0.2564103 0.0000000
0.3589744 0.2564103 0.0000000
0.3846154 0.2564103 0.0000000
0.4102564 0.2564103 0.0000000
0.4358974 0.2564103 0.0000000
0.4615385 0.2564103 0.0000000
0.4871795 0.2564103 0.0000000
0.5128205 0.2564103 0.0000002
0.5384615 0.2564104 0.0000023
0.5641023 0.2564123 0.0000244
0.5897419 0.2564262 0.0001840
0.6153767 0.2565047 0.0010573
0.6409966 0.2568547 0.0047870
0.6665780 0.2581224 0.0172088
0.6920782 0.2619364 0.0481375
0.7174313 0.2715030 0.1031104
0.7425524 0.2912466 0.1751031
0.7673492 0.3242345 0.2524123
0.7917378 0.3692057 0.3276527
0.8156594 0.4213736 0.3979051
0.8390918 0.4758220 0.4624940
0.8620541 0.5293587 0.5216303
0.8846040 0.5804278 0.5758253
0.9068299 0.6284806 0.6256628
0.9288399 0.6734834 0.6717118
0.9507494 0.7156377 0.7144959
0.9726704 0.7552370 0.7544840
0.0000000 0.2820513 0.0000000
0.0256410 0.2820513 0.0000000
0.0512821 0.2820513 0.0000000
0.0769231 0.2820513 0.0000000
0.1025641 0.2820513 0.0000000
0.1282051 0.2820513 0.0000000
0.1538462 0.2820513 0.0000000
0.1794872 0.2820513 0.0000000
0.2051282 0.2820513 0.0000000
0.2307692 0.2820513 0.0000000
0.2564103 0.2820513 0.0000000
0.2820513 0.2820513 0.0000000
0.3076923 0.2820513 0.0000000
0.3333333 0.2820513 0.0000000
0.3589744 0.2820513 0.0000000
0.3846154 0.2820513 0.0000000
0.4102564 0.2820513 0.0000000
0.4358974 0.2820513 0.0000000
0.4615385 0.2820513 0.0000000
0.4871795 0.2820513 0.0000000
0.5128205 0.2820513 0.0000001
0.5384615 0.2820514 0.0000022
0.5641023 0.2820527 0.0000233
0.5897420 0.2820630 0.0001784
0.6153770 0.2821225 0.0010370
0.6409973 0.2823912 0.0047299
0.6665795 0.2833758 0.0170901
0.6920809 0.2863736 0.0479665
0.7174357 0.2940246 0.1029483
0.7425587 0.3102664 0.1749987
0.7673573 0.3385153 0.2523687
0.7917474 0.3787851 0.3276526
0.8156702 0.4273374 0.3979306
0.8391032 0.4794224 0.4625324
0.8620656 0.5315323 0.5216733
0.8846151 0.5817621 0.5758680
0.9068404 0.6293192 0.6257025
0.9288494 0.6740243 0.6717473
0.9507579 0.7159956 0.7145267
0.9726779 0.7554795 0.7545103
0.0000000 0.3076923 0.0000000
0.0256410 0.3076923 0.0000000
0.0512821 0.3076923 0.0000000
0.0769231 0.3076923 0.0000000
0.1025641 0.3076923 0.0000000
0.1282051 0.3076923 0.0000000
0.1538462 0.3076923 0.0000000
0.1794872 0.3076923 0.0000000
0.2051282 0.3076923 0.0000000
0.2307692 0.3076923 0.0000000
0.2564103 0.3076923 0.0000000
0.2820513 0.3076923 0.0000000
0.3076923 0.3076923 0.0000000
0.3333333 0.3076923 0.0000000
0.3589744 0.3076923 0.0000000
0.3846154 0.3076923 0.0000000
0.4102564 0.3076923 0.0000000
0.4358974 0.3076923 0.0000000
0.4615385 0.3076923 0.0000000
0.4871795 0.3076923 0.0000000
0.5128205 0.3076923 0.0000001
0.5384615 0.3076924 0.0000020
0.5641023 0.3076933 0.0000220
0.5897421 0.3077008 0.0001718
0.6153773 0.3077453 0.0010122
0.6409981 0.3079497 0.0046596
0.6665814 0.3087092 0.0169423
0.6920843 0.3110515 0.0477525
0.7174411 0.3171280 0.1027446
0.7425665 0.3303583 0.1748673
0.7673674 0.3542337 0.2523137
0.7917595 0.3897866 0.3276523
0.8156837 0.4344234 0.3979627
0.8391175 0.4837991 0.4625807
0.8620801 0.5342122 0.5217273
0.8846292 0.5834209 0.5759218
0.9068536 0.6303671 0.6257525
0.9288615 0.6747021 0.6717920
0.9507687 0.7164449 0.7145656
0.9726873 0.7557843 0.7545435
0.0000000 0.3333333 0.0000000
0.0256410 0.3333333 0.0000000
0.0512821 0.3333333 0.0000000
0.0769231 0.3333333 0.0000000
0.1025641 0.3333333 0.0000000
0.1282051 0.3333333 0.0000000
0.1538462 0.3333333 0.0000000
0.1794872 0.3333333 0.0000000
0.2051282 0.3333333 0.0000000
0.2307692 0.3333333 0.0000000
0.2564103 0.3333333 0.0000000
0.2820513 0.3333333 0.0000000
0.3076923 0.3333333 0.0000000
0.3333333 0.3333333 0.0000000
0.3589744 0.3333333 0.0000000
0.3846154 0.3333333 0.0000000
0.4102564 0.3333333 0.0000000
0.4358974 0.3333333 0.0000000
0.4615385 0.3333333 0.0000000
0.4871795 0.3333333 0.0000000
0.5128205 0.3333333 0.0000001
0.5384615 0.3333334 0.0000018
0.5641024 0.3333340 0.0000205
0.5897422 0.3333394 0.0001640
0.6153777 0.3333720 0.0009823
0.6409991 0.3335257 0.0045733
0.6665836 0.3341066 0.0167592
0.6920885 0.3359239 0.0474853
0.7174479 0.3407156 0.1024891
0.7425762 0.3513918 0.1747019
0.7673800 0.3713179 0.2522443
0.7917747 0.4022580 0.3276516
0.8157007 0.4427535 0.3980028
0.8391355 0.4890798 0.4626413
0.8620982 0.5374997 0.5217953
0.8846468 0.5854766 0.5759894
0.9068702 0.6316735 0.6258155
0.9288767 0.6755504 0.6718483
0.9507823 0.7170084 0.7146146
0.9726992 0.7561671 0.7545852
0.0000000 0.3589744 0.0000000
0.0256410 0.3589744 0.0000000
0.0512821 0.3589744 0.0000000
0.0769231 0.3589744 0.0000000
0.1025641 0.3589744 0.0000000
0.1282051 0.3589744 0.0000000
0.1538462 0.3589744 0.0000000
0.1794872 0.3589744 0.0000000
0.2051282 0.3589744 0.0000000
0.2307692 0.3589744 0.0000000
0.2564103 0.3589744 0.0000000
0.2820513 0.3589744 0.0000000
0.3076923 0.3589744 0.0000000
0.3333333 0.3589744 0.0000000
0.3589744 0.3589744 0.0000000
0.3846154 0.3589744 0.0000000
0.4102564 0.3589744 0.0000000
0.4358974 0.3589744 0.0000000
0.4615385 0.3589744 0.0000000
0.4871795 0.3589744 0.0000000
0.5128205 0.3589744 0.0000001
0.5384615 0.3589744 0.0000016
0.5641024 0.3589748 0.0000188
0.5897423 0.3589785 0.0001550
0.6153782 0.3590020 0.0009466
0.6410004 0.3591158 0.0044686
0.6665864 0.3595552 0.0165336
0.6920937 0.3609536 0.0471528
0.7174562 0.3647028 0.1021692
0.7425882 0.3732390 0.1744941
0.7673958 0.3896685 0.2521566
0.7917936 0.4162097 0.3276504
0.8157220 0.4524330 0.3980530
0.8391581 0.4953960 0.4627173
0.8621211 0.5415088 0.5218807
0.8846690 0.5880141 0.5760743
0.9068911 0.6332983 0.6258947
0.9288958 0.6766103 0.6719191
0.9507993 0.7177144 0.7146762
0.9727142 0.7566476 0.7546378
0.0000000 0.3846154 0.0000000
0.0256410 0.3846154 0.0000000
0.0512821 0.3846154 0.0000000
0.0769231 0.3846154 0.0000000
0.1025641 0.3846154 0.0000000
0.1282051 0.3846154 0.0000000
0.1538462 0.3846154 0.0000000
0.1794872 0.3846154 0.0000000
0.2051282 0.3846154 0.0000000
0.2307692 0.3846154 0.0000000
0.2564103 0.3846154 0.0000000
0.2820513 0.3846154 0.0000000
0.3076923 0.3846154 0.0000000
0.3333333 0.3846154 0.0000000
0.3589744 0.3846154 0.0000000
0.3846154 0.3846154 0.0000000
0.4102564 0.3846154 0.0000000
0.4358974 0.3846154 0.0000000
0.4615385 0.3846154 0.0000000
0.4871795 0.3846154 0.0000000
0.5128205 0.3846154 0.0000001
0.5384615 0.3846154 0.0000014
0.5641024 0.3846157 0.0000171
0.5897424 0.3846181 0.0001448
0.6153787 0.3846345 0.0009050
0.6410018 0.3847172 0.0043429
0.6665896 0.3850451 0.0162580
0.6920999 0.3861100 0.0467411
0.7174665 0.3890179 0.1017698
0.7426032 0.3957793 0.1742332
0.7674154 0.4091676 0.2520460
0.7918173 0.4316135 0.3276484
0.8157487 0.4635412 0.3981157
0.8391865 0.5028766 0.4628126
0.8621498 0.5463638 0.5219880
0.8846970 0.5911317 0.5761812
0.9069173 0.6353127 0.6259943
0.9289198 0.6779316 0.6720083
0.9508208 0.7185978 0.7147538
0.9727330 0.7572502 0.7547040
0.0000000 0.4102564 0.0000000
0.0256410 0.4102564 0.0000000
0.0512821 0.4102564 0.0000000
0.0769231 0.4102564 0.0000000
0.1025641 0.4102564 0.0000000
0.1282051 0.4102564 0.0000000
0.1538462 0.4102564 0.0000000
0.1794872 0.4102564 0.0000000
0.2051282 0.4102564 0.0000000
0.2307692 0.4102564 0.0000000
0.2564103 0.4102564 0.0000000
0.2820513 0.4102564 0.0000000
0.3076923 0.4102564 0.0000000
0.3333333 0.4102564 0.0000000
0.3589744 0.4102564 0.0000000
0.3846154 0.4102564 0.0000000
0.4102564 0.4102564 0.0000000
0.4358974 0.4102564 0.0000000
0.4615385 0.4102564 0.0000000
0.4871795 0.4102564 0.0000000
0.5128205 0.4102564 0.0000001
0.5384615 0.4102564 0.0000012
0.5641024 0.4102566 0.0000153
0.5897426 0.4102581 0.0001339
0.6153792 0.4102692 0.0008577
0.6410035 0.4103278 0.0041949
0.6665935 0.4105680 0.0159250
0.6921075 0.4113685 0.0462351
0.7174791 0.4136006 0.1012735
0.7426216 0.4189030 0.1739069
0.7674397 0.4296874 0.2519067
0.7918469 0.4484058 0.3276451
0.8157820 0.4761244 0.3981939
0.8392220 0.5116400 0.4629320
0.8621858 0.5521955 0.5221226
0.8847321 0.5949403 0.5763153
0.9069504 0.6378004 0.6261195
0.9289501 0.6795747 0.6721204
0.9508479 0.7197011 0.7148514
0.9727568 0.7580048 0.7547873
0.0000000 0.4358974 0.0000000
0.0256410 0.4358974 0.0000000
0.0512821 0.4358974 0.0000000
0.0769231 0.4358974 0.0000000
0.1025641 0.4358974 0.0000000
0.1282051 0.4358974 0.0000000
0.1538462 0.4358974 0.0000000
0.1794872 0.4358974 0.0000000
0.2051282 0.4358974 0.0000000
0.2307692 0.4358974 0.0000000
0.2564103 0.4358974 0.0000000
0.2820513 0.4358974 0.0000000
0.3076923 0.4358974 0.0000000
0.3333333 0.4358974 0.0000000
0.3589744 0.4358974 0.0000000
0.3846154 0.4358974 0.0000000
0.4102564 0.4358974 0.0000000
0.4358974 0.4358974 0.0000000
0.4615385 0.4358974 0.0000000
0.4871795 0.4358974 0.0000000
0.5128205 0.4358974 0.0000001
0.5384615 0.4358974 0.0000011
0.5641025 0.4358975 0.0000138
0.5897427 0.4358984 0.0001229
0.6153798 0.4359056 0.0008063
0.6410053 0.4359457 0.0040254
0.6665981 0.4361177 0.0155299
0.6921165 0.4367094 0.0456201
0.7174943 0.4384011 0.1006613
0.7426442 0.4425135 0.1735007
0.7674698 0.4510984 0.2517321
0.7918836 0.4664936 0.3276402
0.8158236 0.4901910 0.3982912
0.8392664 0.5217846 0.4630814
0.8622309 0.5591356 0.5222912
0.8847761 0.5995622 0.5764838
0.9069919 0.6408586 0.6262768
0.9289882 0.6816115 0.6722613
0.9508820 0.7210761 0.7149742
0.9727867 0.7589486 0.7548921
0.0000000 0.4615385 0.0000000
0.0256410 0.4615385 0.0000000
0.0512821 0.4615385 0.0000000
0.0769231 0.4615385 0.0000000
0.1025641 0.4615385 0.0000000
0.1282051 0.4615385 0.0000000
0.1538462 0.4615385 0.0000000
0.1794872 0.4615385 0.0000000
0.2051282 0.4615385 0.0000000
0.2307692 0.4615385 0.0000000
0.2564103 0.4615385 0.0000000
0.2820513 0.4615385 0.0000000
0.3076923 0.4615385 0.0000000
0.3333333 0.4615385 0.0000000
0.3589744 0.4615385 0.0000000
0.3846154 0.4615385 0.0000000
0.4102564 0.4615385 0.0000000
0.4358974 0.4615385 0.0000000
0.4615385 0.4615385 0.0000000
0.4871795 0.4615385 0.0000000
0.5128205 0.4615385 0.0000001
0.5384615 0.4615385 0.0000011
0.5641025 0.4615385 0.0000128
0.5897429 0.4615390 0.0001132
0.6153805 0.4615433 0.0007541
0.6410074 0.4615695 0.0038395
0.6666032 0.4616888 0.0150740
0.6921270 0.4621167 0.0448859
0.7175125 0.4633786 0.0999147
0.7426717 0.4665270 0.1729992
0.7675068 0.4732760 0.2515145
0.7919290 0.4857635 0.3276333
0.8158754 0.5057114 0.3984122
0.8393219 0.5333808 0.4632679
0.8622875 0.5673090 0.5225025
0.8848313 0.6051273 0.5766950
0.9070441 0.6445974 0.6264743
0.9290360 0.6841267 0.6724384
0.9509248 0.7227851 0.7151286
0.9728243 0.7601266 0.7550240
0.0000000 0.4871795 0.0000000
0.0256410 0.4871795 0.0000000
0.0512821 0.4871795 0.0000000
0.0769231 0.4871795 0.0000000
0.1025641 0.4871795 0.0000000
0.1282051 0.4871795 0.0000000
0.1538462 0.4871795 0.0000000
0.1794872 0.4871795 0.0000000
0.2051282 0.4871795 0.0000000
0.2307692 0.4871795 0.0000000
0.2564103 0.4871795 0.0000000
0.2820513 0.4871795 0.0000000
0.3076923 0.4871795 0.0000000
0.3333333 0.4871795 0.0000000
0.3589744 0.4871795 0.0000000
0.3846154 0.4871795 0.0000000
0.4102564 0.4871795 0.0000000
0.4358974 0.4871795 0.0000000
0.4615385 0.4871795 0.0000000
0.4871795 0.4871795 0.0000000
0.5128205 0.4871795 0.0000001
0.5384615 0.4871795 0.0000013
0.5641025 0.4871795 0.0000129
0.5897430 0.4871797 0.0001070
0.6153810 0.4871820 0.0007080
0.6410095 0.4871981 0.0036503
0.6666089 0.4872774 0.0145713
0.6921391 0.4875779 0.0440344
0.7175341 0.4884998 0.0990217
0.7427047 0.4908724 0.1723886
0.7675519 0.4961051 0.2512468
