RealBloomCPP/assets/internal/ocio/LUTs/post_formation_compression_p3.cube
TITLE "Moment Compression v1m= 1 sim=1 DCI-P3 I-ESpherical Chroma Compression v1s=0.7 sis=0.4"
# Compress chroma spherically. Resolution 40
# At a radius of 1.0, the compression is 30.0%.
# Very high radii are compressed by 60.0%.
LUT_3D_SIZE 4
0.0000000 0.0000000 0.0000000
0.3333333 0.0000000 0.0000000
0.6665726 0.0176298 0.0176298
0.9726444 0.7543927 0.7543927
0.0000000 0.3333333 0.0000000
0.3333333 0.3333333 0.0000000
0.6665836 0.3341066 0.0167592
0.9726992 0.7561671 0.7545852
0.0176298 0.6665726 0.0176298
0.3341066 0.6665836 0.0167592
0.6666196 0.6666196 0.0328390
0.9737811 0.7870776 0.7583652
0.7543927 0.9726444 0.7543927
0.7561671 0.9726992 0.7545852
0.7870776 0.9737811 0.7583652
0.9871630 0.9871630 0.8312538
0.0000000 0.0000000 0.3333333
0.3333333 0.0000000 0.3333333
0.6665836 0.0167592 0.3341066
0.9726992 0.7545852 0.7561671
0.0000000 0.3333333 0.3333333
0.3333333 0.3333333 0.3333333
0.6665943 0.3340602 0.3340602
0.9727541 0.7563564 0.7563564
0.0167592 0.6665836 0.3341066
0.3340602 0.6665943 0.3340602
0.6666305 0.6666305 0.3347824
0.9738364 0.7872187 0.7600735
0.7545852 0.9726992 0.7561671
0.7563564 0.9727541 0.7563564
0.7872187 0.9738364 0.7600735
0.9872111 0.9872111 0.8320460
0.0176298 0.0176298 0.6665726
0.3341066 0.0167592 0.6665836
0.6666196 0.0328390 0.6666196
0.9737811 0.7583652 0.7870776
0.0167592 0.3341066 0.6665836
0.3340602 0.3340602 0.6665943
0.6666305 0.3347824 0.6666305
0.9738364 0.7600735 0.7872187
0.0328390 0.6666196 0.6666196
0.3347824 0.6666305 0.6666305
0.6666667 0.6666667 0.6666667
0.9749285 0.7899912 0.7899912
0.7583652 0.9737811 0.7870776
0.7600735 0.9738364 0.7872187
0.7899912 0.9749285 0.7899912
0.9881708 0.9881708 0.8469596
0.7543927 0.7543927 0.9726444
0.7561671 0.7545852 0.9726992
0.7870776 0.7583652 0.9737811
0.9871630 0.8312538 0.9871630
0.7545852 0.7561671 0.9726992
0.7563564 0.7563564 0.9727541
0.7872187 0.7600735 0.9738364
0.9872111 0.8320460 0.9872111
0.7583652 0.7870776 0.9737811
0.7600735 0.7872187 0.9738364
0.7899912 0.7899912 0.9749285
0.9881708 0.8469596 0.9881708
0.8312538 0.9871630 0.9871630
0.8320460 0.9872111 0.9872111
0.8469596 0.9881708 0.9881708
1.0000000 1.0000000 1.0000000
